;FLAVOR:RepRap
;TIME:3623
;Filament used: 2.35212m
;Layer height: 0.2
;Generated with Cura_SteamEngine 2.5.0
M190 S60
M104 S230
M104 T1 S235
M109 S230
M109 T1 S235
G21 ;metric values
G90 ;absolute positioning
M82 ;set extruder to absolute mode
M107 ;start with the fan off
G28 X0 Y0 ;move X/Y to min endstops
G28 Z0 ;move Z to min endstops
G1 Z15.0 F9000 ;move the platform down 15mm
T1 ;Switch to the 2nd extruder
G92 E0 ;zero the extruded length
G1 F200 E6 ;extrude 6 mm of feed stock
G92 E0 ;zero the extruded length again
G1 F200 E-16
T0 ;Switch to the 1st extruder
G92 E0 ;zero the extruded length
G1 F200 E6 ;extrude 6 mm of feed stock
G92 E0 ;zero the extruded length again
G1 F9000
;Put printing message on LCD screen
M117 Printing...
;LAYER_COUNT:250
;LAYER:0
M107
M104 T1 S200
G0 F3600 X79.793 Y78.829 Z0.2
;TYPE:SKIRT
G1 F1800 X80.598 Y78.138 E0.03529
G1 X81.205 Y77.717 E0.05986
G1 X81.987 Y77.286 E0.08955
G1 X82.574 Y77.028 E0.11088
G1 X83.407 Y76.747 E0.14012
G1 X84.035 Y76.596 E0.1616
G1 X84.996 Y76.455 E0.19391
G1 X85.518 Y76.417 E0.21131
G1 X115.89 Y76.412 E1.22149
G1 X116.343 Y76.44 E1.23659
G1 X117.126 Y76.539 E1.26284
G1 X117.615 Y76.636 E1.27942
G1 X118.291 Y76.819 E1.30271
G1 X118.854 Y77.023 E1.32263
G1 X119.778 Y77.448 E1.35646
G1 X120.371 Y77.793 E1.37927
G1 X121.056 Y78.284 E1.40731
G1 X121.529 Y78.689 E1.42802
G1 X122.156 Y79.328 E1.45779
G1 X122.567 Y79.83 E1.47937
G1 X123.073 Y80.577 E1.50938
G1 X123.411 Y81.201 E1.53298
G1 X123.863 Y82.276 E1.57177
G1 X124.033 Y82.784 E1.58959
G1 X124.123 Y83.287 E1.60658
G1 X124.315 Y85.075 E1.66639
G1 X124.336 Y85.463 E1.67932
G1 X124.305 Y115.451 E2.67672
G1 X124.238 Y116.137 E2.69965
G1 X124.051 Y117.095 E2.73211
G1 X123.887 Y117.674 E2.75213
G1 X123.62 Y118.383 E2.77733
G1 X123.361 Y118.928 E2.7974
G1 X122.913 Y119.696 E2.82697
G1 X122.544 Y120.216 E2.84818
G1 X121.964 Y120.897 E2.87793
G1 X121.5 Y121.351 E2.89952
G1 X120.807 Y121.917 E2.92928
G1 X120.269 Y122.281 E2.95088
G1 X119.486 Y122.713 E2.98063
G1 X118.898 Y122.972 E3.002
G1 X118.065 Y123.253 E3.03124
G1 X117.419 Y123.406 E3.05332
G1 X116.388 Y123.552 E3.08795
G1 X115.879 Y123.588 E3.10492
G1 X85.16 Y123.551 E4.12664
G1 X84.38 Y123.465 E4.15274
G1 X83.39 Y123.244 E4.18648
G1 X82.78 Y123.049 E4.20778
G1 X82.016 Y122.728 E4.23534
G1 X81.514 Y122.469 E4.25413
G1 X78.194 Y120.411 E4.38405
G1 X73.406 Y117.745 E4.56632
G1 X68.495 Y115.362 E4.74787
G1 X63.613 Y113.308 E4.92404
G1 X63.135 Y113.064 E4.94189
G1 X62.699 Y112.752 E4.95972
G1 X62.315 Y112.378 E4.97755
G1 X61.99 Y111.951 E4.99539
G1 X61.732 Y111.481 E5.01323
G1 X61.547 Y110.977 E5.03108
G1 X61.439 Y110.452 E5.04891
G1 X61.409 Y109.99 E5.06431
G1 X61.41 Y100.005 E5.39641
G1 X61.45 Y99.47 E5.41426
G1 X61.569 Y98.947 E5.43209
G1 X61.764 Y98.448 E5.44991
G1 X62.032 Y97.983 E5.46776
G1 X62.365 Y97.563 E5.48559
G1 X62.639 Y97.296 E5.49832
G1 X65.446 Y94.838 E5.62241
G1 X69.389 Y91.053 E5.8042
G1 X73.117 Y87.044 E5.98628
G1 X74.88 Y84.979 E6.07659
G1 X79.306 Y79.339 E6.31504
G1 X79.793 Y78.829 E6.3385
G0 F3600 X80.054 Y79.133
G1 F1800 X80.859 Y78.442 E6.37378
G1 X81.398 Y78.067 E6.39562
G1 X82.18 Y77.636 E6.42532
G1 X82.702 Y77.407 E6.44428
G1 X83.535 Y77.126 E6.47352
G1 X84.093 Y76.992 E6.49261
G1 X85.054 Y76.851 E6.52491
G1 X85.518 Y76.817 E6.54039
G1 X115.89 Y76.812 E7.55056
G1 X116.292 Y76.837 E7.56396
G1 X117.075 Y76.936 E7.59021
G1 X117.51 Y77.022 E7.60496
G1 X118.186 Y77.205 E7.62825
G1 X118.687 Y77.387 E7.64598
G1 X119.611 Y77.812 E7.67981
G1 X120.138 Y78.118 E7.70008
G1 X120.823 Y78.609 E7.72811
G1 X121.243 Y78.969 E7.74651
G1 X121.87 Y79.608 E7.77628
G1 X122.235 Y80.054 E7.79545
G1 X122.741 Y80.801 E7.82546
G1 X123.042 Y81.356 E7.84646
G1 X123.494 Y82.431 E7.88525
G1 X123.652 Y82.911 E7.90205
G1 X123.726 Y83.329 E7.91617
G1 X123.918 Y85.117 E7.97598
G1 X123.936 Y85.462 E7.98747
G1 X123.905 Y115.45 E8.98488
G1 X123.846 Y116.06 E9.00526
G1 X123.659 Y117.018 E9.03773
G1 X123.513 Y117.533 E9.05553
G1 X123.246 Y118.242 E9.08073
G1 X123.015 Y118.726 E9.09857
G1 X122.567 Y119.494 E9.12814
G1 X122.239 Y119.957 E9.14701
G1 X121.659 Y120.638 E9.17676
G1 X121.247 Y121.041 E9.19593
G1 X120.554 Y121.607 E9.22569
G1 X120.076 Y121.931 E9.2449
G1 X119.293 Y122.363 E9.27464
G1 X118.77 Y122.593 E9.29364
G1 X117.937 Y122.874 E9.32288
G1 X117.363 Y123.01 E9.3425
G1 X116.332 Y123.156 E9.37714
G1 X115.879 Y123.188 E9.39224
G1 X85.16 Y123.151 E10.41396
G1 X84.467 Y123.074 E10.43715
G1 X83.477 Y122.853 E10.47089
G1 X82.934 Y122.68 E10.48984
G1 X82.17 Y122.359 E10.51741
G1 X81.724 Y122.129 E10.5341
G1 X78.393 Y120.065 E10.66443
G1 X73.59 Y117.39 E10.84728
G1 X68.669 Y115.002 E11.02921
G1 X63.768 Y112.94 E11.20606
G1 X63.319 Y112.707 E11.22288
G1 X62.912 Y112.407 E11.2397
G1 X62.557 Y112.047 E11.25652
G1 X62.264 Y111.635 E11.27333
G1 X62.039 Y111.182 E11.29015
G1 X61.889 Y110.699 E11.30698
G1 X61.809 Y109.99 E11.33071
G1 X61.81 Y100.005 E11.66281
G1 X61.85 Y99.501 E11.67962
G1 X61.969 Y99.009 E11.69646
G1 X62.164 Y98.543 E11.71326
G1 X62.429 Y98.113 E11.73006
G1 X62.902 Y97.597 E11.75334
G1 X65.726 Y95.124 E11.87819
G1 X69.676 Y91.332 E12.06031
G1 X73.409 Y87.319 E12.2426
G1 X75.194 Y85.228 E12.33405
G1 X79.621 Y79.586 E12.57257
G1 X80.054 Y79.133 E12.59341
G1 F1500 E10.59341
G0 F3600 X81.743 Y80.995
G0 X82.71 Y81.838
G0 X82.766 Y81.896
G0 X82.697 Y81.824
;TYPE:WALL-INNER
G1 F1500 E12.59341
G1 F1800 X83.316 Y81.33 E12.61975
G1 X84.01 Y80.955 E12.64599
G1 X84.754 Y80.714 E12.672
G1 X85.573 Y80.605 E12.69948
G1 X85.755 Y80.6 E12.70554
G1 X115.733 Y80.6 E13.70261
G1 X115.92 Y80.606 E13.70883
G1 X116.672 Y80.706 E13.73407
G1 X116.749 Y80.724 E13.7367
G1 X117.462 Y80.956 E13.76163
G1 X118.156 Y81.33 E13.78785
G1 X118.775 Y81.824 E13.8142
G1 X119.294 Y82.417 E13.84041
G1 X119.699 Y83.096 E13.8667
G1 X119.973 Y83.825 E13.8926
G1 X120.118 Y84.644 E13.92027
G1 X120.136 Y85.019 E13.93275
G1 X120.135 Y115.001 E14.92996
G1 X120.117 Y115.383 E14.94268
G1 X119.98 Y116.143 E14.96836
G1 X119.699 Y116.904 E14.99535
G1 X119.294 Y117.583 E15.02164
G1 X118.775 Y118.176 E15.04785
G1 X118.156 Y118.67 E15.07419
G1 X117.462 Y119.045 E15.10043
G1 X116.718 Y119.286 E15.12644
G1 X115.899 Y119.395 E15.15392
G1 X115.718 Y119.4 E15.15994
G1 X85.718 Y119.397 E16.15775
G1 X85.149 Y119.358 E16.17672
G1 X84.413 Y119.191 E16.20182
G1 X84.343 Y119.168 E16.20427
G1 X83.653 Y118.872 E16.22924
G1 X82.994 Y118.438 E16.25549
G1 X82.428 Y117.896 E16.28155
G1 X81.959 Y117.251 E16.30808
G1 X81.62 Y116.548 E16.33403
G1 X81.409 Y115.779 E16.36056
G1 X81.337 Y114.979 E16.38727
G1 X81.338 Y84.997 E17.38448
G1 X81.355 Y84.617 E17.39713
G1 X81.492 Y83.86 E17.42272
G1 X81.512 Y83.79 E17.42514
G1 X81.773 Y83.096 E17.4498
G1 X82.178 Y82.417 E17.47609
G1 X82.697 Y81.824 E17.5023
G0 F3600 X82.766 Y81.896
G0 X89.688 Y88.952
G0 X89.758 Y89.022
G1 F1800 X88.732 Y90.154 E17.55312
G1 X87.824 Y91.379 E17.60383
G1 X87.046 Y92.679 E17.65422
G1 X86.391 Y94.062 E17.70512
G1 X85.878 Y95.497 E17.75581
G1 X85.509 Y96.975 E17.80647
G1 X85.286 Y98.475 E17.85691
G1 X85.212 Y100.004 E17.90783
G1 X85.286 Y101.525 E17.95848
G1 X85.509 Y103.025 E18.00891
G1 X85.878 Y104.503 E18.05958
G1 X86.391 Y105.938 E18.11027
G1 X87.045 Y107.319 E18.16109
G1 X87.824 Y108.621 E18.21155
G1 X88.732 Y109.846 E18.26227
G1 X89.758 Y110.978 E18.31308
G1 X90.888 Y112.002 E18.3638
G1 X92.112 Y112.91 E18.41449
G1 X93.415 Y113.69 E18.465
G1 X94.794 Y114.343 E18.51575
G1 X96.231 Y114.857 E18.56651
G1 X97.711 Y115.227 E18.61725
G1 X99.211 Y115.45 E18.66769
G1 X100.736 Y115.525 E18.71847
G1 X102.261 Y115.45 E18.76926
G1 X103.761 Y115.227 E18.81969
G1 X105.241 Y114.857 E18.87043
G1 X106.678 Y114.343 E18.9212
G1 X108.057 Y113.69 E18.97194
G1 X109.36 Y112.91 E19.02245
G1 X110.584 Y112.002 E19.07314
G1 X111.714 Y110.978 E19.12386
G1 X112.74 Y109.846 E19.17468
G1 X113.648 Y108.621 E19.22539
G1 X114.427 Y107.319 E19.27586
G1 X115.081 Y105.938 E19.32668
G1 X115.594 Y104.503 E19.37736
G1 X115.963 Y103.025 E19.42803
G1 X116.186 Y101.525 E19.47847
G1 X116.261 Y99.996 E19.52939
G1 X116.186 Y98.475 E19.58004
G1 X115.963 Y96.975 E19.63048
G1 X115.594 Y95.497 E19.68114
G1 X115.078 Y94.055 E19.73208
G1 X114.426 Y92.679 E19.78273
G1 X113.644 Y91.373 E19.83335
G1 X112.74 Y90.154 E19.88383
G1 X111.714 Y89.022 E19.93465
G1 X110.582 Y87.996 E19.98546
G1 X109.36 Y87.09 E20.03606
G1 X108.057 Y86.31 E20.08657
G1 X106.678 Y85.657 E20.13731
G1 X105.241 Y85.143 E20.18807
G1 X103.761 Y84.773 E20.23881
G1 X102.261 Y84.55 E20.28925
G1 X100.736 Y84.475 E20.34003
G1 X99.211 Y84.55 E20.39082
G1 X97.711 Y84.773 E20.44126
G1 X96.231 Y85.143 E20.492
G1 X94.794 Y85.657 E20.54276
G1 X93.415 Y86.31 E20.5935
G1 X92.112 Y87.09 E20.64401
G1 X90.89 Y87.996 E20.69461
G1 X89.758 Y89.022 E20.74542
G0 F3600 X90.041 Y89.305
;TYPE:WALL-OUTER
G1 F1800 X89.042 Y90.408 E20.79492
G1 X88.157 Y91.601 E20.84433
G1 X87.399 Y92.868 E20.89343
G1 X86.761 Y94.215 E20.94301
G1 X86.261 Y95.613 E20.99239
G1 X85.902 Y97.053 E21.04175
G1 X85.685 Y98.514 E21.09087
G1 X85.612 Y100.004 E21.14049
G1 X85.685 Y101.486 E21.18984
G1 X85.902 Y102.947 E21.23897
G1 X86.261 Y104.387 E21.28833
G1 X86.761 Y105.785 E21.33771
G1 X87.398 Y107.13 E21.38721
G1 X88.157 Y108.399 E21.43639
G1 X89.042 Y109.592 E21.4858
G1 X90.041 Y110.695 E21.53529
G1 X91.142 Y111.692 E21.58469
G1 X92.334 Y112.577 E21.63407
G1 X93.604 Y113.337 E21.6833
G1 X94.947 Y113.973 E21.73272
G1 X96.347 Y114.474 E21.78218
G1 X97.789 Y114.834 E21.83161
G1 X99.25 Y115.051 E21.88074
G1 X100.736 Y115.125 E21.93022
G1 X102.222 Y115.051 E21.97971
G1 X103.683 Y114.834 E22.02884
G1 X105.125 Y114.474 E22.07827
G1 X106.525 Y113.973 E22.12772
G1 X107.868 Y113.337 E22.17715
G1 X109.138 Y112.577 E22.22637
G1 X110.33 Y111.692 E22.27575
G1 X111.431 Y110.695 E22.32516
G1 X112.43 Y109.592 E22.37465
G1 X113.315 Y108.399 E22.42406
G1 X114.074 Y107.13 E22.47324
G1 X114.711 Y105.785 E22.52274
G1 X115.211 Y104.387 E22.57212
G1 X115.57 Y102.947 E22.62148
G1 X115.787 Y101.486 E22.6706
G1 X115.861 Y99.996 E22.72022
G1 X115.787 Y98.514 E22.76958
G1 X115.57 Y97.053 E22.8187
G1 X115.211 Y95.613 E22.86806
G1 X114.708 Y94.208 E22.9177
G1 X114.073 Y92.868 E22.96702
G1 X113.311 Y91.595 E23.01636
G1 X112.43 Y90.408 E23.06553
G1 X111.431 Y89.305 E23.11503
G1 X110.328 Y88.306 E23.16452
G1 X109.138 Y87.423 E23.21381
G1 X107.868 Y86.663 E23.26303
G1 X106.525 Y86.027 E23.31246
G1 X105.125 Y85.526 E23.36191
G1 X103.683 Y85.166 E23.41135
G1 X102.222 Y84.949 E23.46047
G1 X100.736 Y84.875 E23.50996
G1 X99.25 Y84.949 E23.55944
G1 X97.789 Y85.166 E23.60857
G1 X96.347 Y85.526 E23.658
G1 X94.947 Y86.027 E23.70746
G1 X93.604 Y86.663 E23.75688
G1 X92.334 Y87.423 E23.80611
G1 X91.144 Y88.306 E23.8554
G1 X90.041 Y89.305 E23.90489
G0 F3600 X89.907 Y89.453
G0 X89.537 Y89.117
G0 X85.756 Y80.699
G0 X85.743 Y80.2
G1 F1800 X115.745 Y80.2 E24.90276
G1 X115.946 Y80.206 E24.90945
G1 X116.749 Y80.313 E24.93639
G1 X116.854 Y80.338 E24.93998
G1 X117.621 Y80.587 E24.96681
G1 X118.38 Y80.996 E24.99548
G1 X119.049 Y81.53 E25.02395
G1 X119.618 Y82.181 E25.05271
G1 X120.061 Y82.922 E25.08142
G1 X120.361 Y83.721 E25.10981
G1 X120.517 Y84.603 E25.1396
G1 X120.536 Y85 E25.15282
G1 X120.535 Y115.02 E26.15129
G1 X120.516 Y115.427 E26.16484
G1 X120.371 Y116.228 E26.19192
G1 X120.344 Y116.324 E26.19523
G1 X120.061 Y117.078 E26.22202
G1 X119.618 Y117.819 E26.25073
G1 X119.049 Y118.47 E26.27949
G1 X118.38 Y119.004 E26.30796
G1 X117.621 Y119.413 E26.33664
G1 X116.803 Y119.679 E26.36525
G1 X115.933 Y119.794 E26.39443
G1 X115.73 Y119.8 E26.40119
G1 X85.706 Y119.797 E27.39979
G1 X85.09 Y119.755 E27.42033
G1 X84.303 Y119.576 E27.44717
G1 X84.21 Y119.546 E27.45042
G1 X83.461 Y119.224 E27.47754
G1 X82.745 Y118.753 E27.50604
G1 X82.123 Y118.158 E27.53467
G1 X81.615 Y117.459 E27.56341
G1 X81.243 Y116.687 E27.59191
G1 X81.014 Y115.854 E27.62065
G1 X80.937 Y114.993 E27.6494
G1 X80.938 Y84.979 E28.64767
G1 X80.956 Y84.573 E28.66119
G1 X81.101 Y83.772 E28.68826
G1 X81.13 Y83.67 E28.69179
G1 X81.411 Y82.922 E28.71836
G1 X81.854 Y82.181 E28.74708
G1 X82.423 Y81.53 E28.77583
G1 X83.092 Y80.996 E28.8043
G1 X83.851 Y80.587 E28.83298
G1 X84.669 Y80.321 E28.86159
G1 X85.539 Y80.206 E28.89078
G1 X85.743 Y80.2 E28.89757
G0 F3600 X85.943 Y80.2
G0 X85.871 Y80.779
;TYPE:SKIN
G1 F1800 X92.023 Y86.932 E29.18696
G1 X92.093 Y87.002
G0 F3600 X91.697 Y87.172
G1 F1800 X85.342 Y80.817 E29.48588
G1 X85.272 Y80.747
G0 F3600 X84.842 Y80.883
G1 F1800 X91.372 Y87.412 E29.79301
G1 X91.442 Y87.482
G0 F3600 X91.047 Y87.653
G1 F1800 X84.409 Y81.015 E30.10524
G1 X84.339 Y80.945
G0 F3600 X83.996 Y81.168
G1 F1800 X90.726 Y87.898 E30.4218
G1 X90.796 Y87.968
G0 F3600 X90.43 Y88.167
G1 F1800 X83.628 Y81.366 E30.74172
G1 X83.558 Y81.296
G0 F3600 X83.283 Y81.585
G1 F1800 X90.133 Y88.436 E31.06395
G1 X90.203 Y88.506
G0 F3600 X89.836 Y88.705
G1 F1800 X82.968 Y81.837 E31.387
G1 X82.898 Y81.767
G0 F3600 X82.679 Y82.114
G1 F1800 X89.548 Y88.983 E31.71009
G1 X89.618 Y89.053
G0 F3600 X89.28 Y89.28
G1 F1800 X82.416 Y82.416 E32.03295
G1 X82.346 Y82.346
G0 F3600 X82.187 Y82.752
G1 F1800 X89.011 Y89.576 E32.35393
G1 X89.081 Y89.646
G0 F3600 X88.742 Y89.873
G1 F1800 X81.975 Y83.106 E32.67223
G1 X81.905 Y83.036
G0 F3600 X81.81 Y83.507
G1 F1800 X88.485 Y90.182 E32.9862
G1 X88.555 Y90.252
G0 F3600 X88.244 Y90.507
G1 F1800 X81.663 Y83.925 E33.29578
G1 X81.593 Y83.855
G0 F3600 X81.576 Y84.404
G1 F1800 X88.004 Y90.832 E33.59813
G1 X88.074 Y90.902
G0 F3600 X87.763 Y91.157
G1 F1800 X81.521 Y84.915 E33.89174
G1 X81.451 Y84.845
G0 F3600 X81.517 Y85.477
G1 F1800 X87.54 Y91.5 E34.17504
G1 X87.61 Y91.57
G0 F3600 X87.329 Y91.854
G1 F1800 X81.517 Y86.042 E34.44842
G1 X81.447 Y85.972
G0 F3600 X81.517 Y86.608
G1 F1800 X87.117 Y92.208 E34.71183
G1 X87.187 Y92.278
G0 F3600 X86.906 Y92.563
G1 F1800 X81.517 Y87.174 E34.96531
G1 X81.447 Y87.104
G0 F3600 X81.517 Y87.739
G1 F1800 X86.721 Y92.944 E35.21011
G1 X86.791 Y93.014
G0 F3600 X86.539 Y93.328
G1 F1800 X81.517 Y88.305 E35.44635
G1 X81.447 Y88.235
G0 F3600 X81.517 Y88.871
G1 F1800 X86.358 Y93.712 E35.67406
G1 X86.428 Y93.782
G0 F3600 X86.185 Y94.104
G1 F1800 X81.517 Y89.436 E35.89363
G1 X81.447 Y89.366
G0 F3600 X81.517 Y90.002
G1 F1800 X86.035 Y94.521 E36.10616
G1 X86.105 Y94.591
G0 F3600 X85.887 Y94.938
G1 F1800 X81.517 Y90.568 E36.31172
G1 X81.447 Y90.498
G0 F3600 X81.517 Y91.134
G1 F1800 X85.738 Y95.354 E36.51024
G1 X85.808 Y95.424
G0 F3600 X85.617 Y95.799
G1 F1800 X81.517 Y91.699 E36.70309
G1 X81.447 Y91.629
G0 F3600 X81.517 Y92.265
G1 F1800 X85.504 Y96.252 E36.89062
G1 X85.574 Y96.322
G0 F3600 X85.391 Y96.705
G1 F1800 X81.517 Y92.831 E37.07284
G1 X81.447 Y92.761
G0 F3600 X81.517 Y93.396
G1 F1800 X85.297 Y97.176 E37.25064
G1 X85.367 Y97.246
G0 F3600 X85.224 Y97.669
G1 F1800 X81.517 Y93.962 E37.42501
G1 X81.447 Y93.892
G0 F3600 X81.517 Y94.528
G1 F1800 X85.151 Y98.162 E37.59594
G1 X85.221 Y98.232
G0 F3600 X85.097 Y98.673
G1 F1800 X81.517 Y95.093 E37.76433
G1 X81.447 Y95.023
G0 F3600 X81.517 Y95.659
G1 F1800 X85.07 Y99.212 E37.93146
G1 X85.14 Y99.282
G0 F3600 X85.044 Y99.752
G1 F1800 X81.517 Y96.225 E38.09736
G1 X81.447 Y96.155
G0 F3600 X81.517 Y96.79
G1 F1800 X85.047 Y100.32 E38.2634
G1 X85.117 Y100.39
G0 F3600 X85.076 Y100.915
G1 F1800 X81.517 Y97.356 E38.4308
G1 X81.447 Y97.286
G0 F3600 X81.517 Y97.922
G1 F1800 X85.105 Y101.51 E38.59957
G1 X85.175 Y101.58
G0 F3600 X85.2 Y102.171
G1 F1800 X81.517 Y98.487 E38.77283
G1 X81.447 Y98.417
G0 F3600 X81.517 Y99.053
G1 F1800 X85.299 Y102.835 E38.95072
G1 X85.369 Y102.905
G0 F3600 X85.457 Y103.559
G1 F1800 X81.517 Y99.619 E39.13605
G1 X81.447 Y99.549
G0 F3600 X81.517 Y100.185
