;FLAVOR:RepRap
;TIME:1098
;Filament used: 0.544842m
;Layer height: 0.2
;Generated with Cura_SteamEngine 2.6.0-BETA
M190 S65
M104 S260
M104 T1 S260
M109 S260
M109 T1 S260
G28 ;Home
G1 Z15.0 F6000 ;Move the platform down 15mm
G92 E0
G1 F200 E3
G92 E0
;START
;LAYER_COUNT:25
;LAYER:0
M107
G0 F3600 X46.97 Y84.834 Z0.3
;TYPE:SKIRT
G1 F1800 X47.594 Y84.515 E0.03496
G1 X49.529 Y83.664 E0.14042
G1 X54.401 Y81.294 E0.41072
G1 X56.645 Y80.081 E0.53799
G1 X61.269 Y77.322 E0.80662
G1 X65.654 Y74.359 E1.07065
G1 X69.9 Y71.125 E1.33693
G1 X73.933 Y67.676 E1.60168
G1 X77.564 Y64.215 E1.85195
G1 X78.092 Y63.767 E1.88649
G1 X78.668 Y63.383 E1.92103
G1 X79.285 Y63.067 E1.95561
G1 X79.934 Y62.825 E1.99017
G1 X80.606 Y62.659 E2.0247
G1 X81.293 Y62.572 E2.05925
G1 X81.691 Y62.558 E2.07912
G1 X101.699 Y62.516 E3.07733
G1 X102.391 Y62.555 E3.11191
G1 X103.073 Y62.672 E3.14643
G1 X103.738 Y62.868 E3.18102
G1 X104.375 Y63.139 E3.21555
G1 X104.977 Y63.482 E3.25012
G1 X105.535 Y63.892 E3.28467
G1 X105.963 Y64.282 E3.31355
G1 X120.08 Y78.456 E4.3116
G1 X120.54 Y78.974 E4.34616
G1 X120.937 Y79.542 E4.38073
G1 X121.265 Y80.151 E4.41524
G1 X121.522 Y80.794 E4.44979
G1 X121.702 Y81.463 E4.48435
G1 X121.804 Y82.148 E4.5189
G1 X121.827 Y82.84 E4.55345
G1 X121.77 Y83.53 E4.58799
G1 X121.633 Y84.209 E4.62255
G1 X121.42 Y84.868 E4.6571
G1 X121.132 Y85.498 E4.69166
G1 X120.773 Y86.09 E4.7262
G1 X120.348 Y86.637 E4.76076
G1 X120.071 Y86.933 E4.78098
G1 X105.939 Y101.064 E5.77804
G1 X105.422 Y101.524 E5.81256
G1 X104.856 Y101.922 E5.84708
G1 X104.247 Y102.252 E5.88164
G1 X103.604 Y102.51 E5.91621
G1 X103.221 Y102.624 E5.93614
G1 X96.717 Y104.332 E6.27163
G1 X91.698 Y105.987 E6.53529
G1 X86.735 Y107.939 E6.80136
G1 X81.909 Y110.161 E7.06642
G1 X77.194 Y112.663 E7.33272
G1 X73.092 Y115.131 E7.57156
G1 X72.479 Y115.454 E7.60613
G1 X71.833 Y115.703 E7.64067
G1 X71.162 Y115.876 E7.67524
G1 X70.476 Y115.971 E7.70979
G1 X69.999 Y115.99 E7.73361
G1 X50.009 Y115.991 E8.73091
G1 X49.318 Y115.951 E8.76544
G1 X48.636 Y115.832 E8.79998
G1 X47.972 Y115.635 E8.83454
G1 X47.335 Y115.362 E8.86911
G1 X46.734 Y115.018 E8.90366
G1 X46.177 Y114.608 E8.93817
G1 X45.67 Y114.135 E8.97276
G1 X45.221 Y113.608 E9.0073
G1 X44.837 Y113.032 E9.04184
G1 X44.521 Y112.416 E9.07638
G1 X44.278 Y111.767 E9.11095
G1 X44.111 Y111.095 E9.1455
G1 X44.023 Y110.408 E9.18005
G1 X44.009 Y109.991 E9.20087
G1 X44.01 Y90.007 E10.19787
G1 X44.05 Y89.315 E10.23246
G1 X44.169 Y88.633 E10.26699
G1 X44.367 Y87.969 E10.30156
G1 X44.639 Y87.333 E10.33607
G1 X44.983 Y86.732 E10.37062
G1 X45.394 Y86.174 E10.4052
G1 X45.866 Y85.668 E10.43972
G1 X46.394 Y85.219 E10.4743
G1 X46.97 Y84.834 E10.50886
G0 F3600 X47.756 Y84.881
G1 F1800 X49.676 Y84.036 E10.61352
G1 X54.596 Y81.643 E10.88647
G1 X56.852 Y80.424 E11.0144
G1 X61.472 Y77.667 E11.28282
G1 X65.895 Y74.679 E11.54912
G1 X70.148 Y71.439 E11.81586
G1 X74.206 Y67.969 E12.08224
G1 X77.84 Y64.505 E12.33271
G1 X78.351 Y64.073 E12.36609
G1 X78.91 Y63.705 E12.39948
G1 X79.509 Y63.406 E12.43288
G1 X80.139 Y63.181 E12.46626
G1 X80.791 Y63.033 E12.49962
G1 X81.692 Y62.958 E12.54472
G1 X101.7 Y62.916 E13.54293
G1 X102.368 Y62.955 E13.57631
G1 X103.027 Y63.073 E13.60971
G1 X103.666 Y63.268 E13.64304
G1 X104.278 Y63.539 E13.67643
G1 X104.854 Y63.88 E13.70983
G1 X105.384 Y64.288 E13.7432
G1 X105.68 Y64.564 E13.76339
G1 X119.797 Y78.738 E14.76143
G1 X120.24 Y79.24 E14.79484
G1 X120.62 Y79.79 E14.82819
G1 X120.931 Y80.382 E14.86155
G1 X121.17 Y81.007 E14.89493
G1 X121.333 Y81.656 E14.92832
G1 X121.417 Y82.32 E14.96171
G1 X121.421 Y82.989 E14.99509
G1 X121.345 Y83.654 E15.02848
G1 X121.191 Y84.305 E15.06185
G1 X120.96 Y84.933 E15.09524
G1 X120.656 Y85.529 E15.12862
G1 X120.283 Y86.084 E15.16198
G1 X119.789 Y86.65 E15.19946
G1 X105.657 Y100.781 E16.19651
G1 X105.156 Y101.225 E16.22991
G1 X104.606 Y101.606 E16.26329
G1 X104.015 Y101.919 E16.29666
G1 X103.12 Y102.237 E16.34404
G1 X96.618 Y103.945 E16.67943
G1 X91.537 Y105.619 E16.94633
G1 X86.587 Y107.567 E17.21172
G1 X81.732 Y109.802 E17.47837
G1 X77.009 Y112.309 E17.74514
G1 X72.886 Y114.789 E17.98518
G1 X72.293 Y115.099 E18.01857
G1 X71.667 Y115.336 E18.05196
G1 X71.018 Y115.497 E18.08532
G1 X70.354 Y115.579 E18.1187
G1 X69.999 Y115.59 E18.13642
G1 X50.009 Y115.591 E19.13372
G1 X49.341 Y115.551 E19.16711
G1 X48.683 Y115.432 E19.20047
G1 X48.044 Y115.235 E19.23383
G1 X47.432 Y114.963 E19.26724
G1 X46.858 Y114.62 E19.3006
G1 X46.328 Y114.211 E19.334
G1 X45.851 Y113.742 E19.36738
G1 X45.434 Y113.22 E19.40071
G1 X45.081 Y112.651 E19.43412
G1 X44.799 Y112.044 E19.46751
G1 X44.591 Y111.408 E19.50089
G1 X44.461 Y110.752 E19.53426
G1 X44.409 Y109.991 E19.57231
G1 X44.41 Y90.007 E20.56932
G1 X44.45 Y89.339 E20.6027
G1 X44.569 Y88.681 E20.63606
G1 X44.766 Y88.041 E20.66947
G1 X45.038 Y87.43 E20.70284
G1 X45.381 Y86.855 E20.73624
G1 X45.79 Y86.326 E20.7696
G1 X46.259 Y85.849 E20.80298
G1 X46.782 Y85.431 E20.83638
G1 X47.35 Y85.079 E20.86972
G1 X47.756 Y84.881 E20.89225
G0 F3600 X47.917 Y85.247
G1 F1800 X49.855 Y84.395 E20.99787
G1 X54.773 Y82.002 E21.27073
G1 X57.041 Y80.776 E21.39936
G1 X61.688 Y78.004 E21.66931
G1 X66.127 Y75.004 E21.93661
G1 X70.405 Y71.745 E22.20492
G1 X74.469 Y68.271 E22.47165
G1 X78.116 Y64.794 E22.72304
G1 X78.609 Y64.379 E22.75519
G1 X79.15 Y64.028 E22.78737
G1 X79.73 Y63.747 E22.81952
G1 X80.341 Y63.54 E22.8517
G1 X80.972 Y63.41 E22.88385
G1 X81.693 Y63.358 E22.91991
G1 X101.701 Y63.316 E23.91812
G1 X102.345 Y63.355 E23.9503
G1 X102.978 Y63.473 E23.98243
G1 X103.593 Y63.668 E24.01462
G1 X104.178 Y63.938 E24.04676
G1 X104.726 Y64.278 E24.07894
G1 X105.396 Y64.846 E24.12276
G1 X119.513 Y79.02 E25.1208
G1 X119.939 Y79.505 E25.15301
G1 X120.302 Y80.038 E25.18518
G1 X120.595 Y80.611 E25.21729
G1 X120.816 Y81.217 E25.24947
G1 X120.96 Y81.846 E25.28166
G1 X121.025 Y82.487 E25.3138
G1 X121.01 Y83.131 E25.34594
G1 X120.916 Y83.769 E25.37812
G1 X120.743 Y84.39 E25.41028
G1 X120.495 Y84.985 E25.44244
G1 X120.175 Y85.545 E25.47462
G1 X119.788 Y86.061 E25.50679
G1 X119.506 Y86.367 E25.52756
G1 X105.374 Y100.498 E26.52461
G1 X104.891 Y100.925 E26.55677
G1 X104.358 Y101.288 E26.58895
G1 X103.785 Y101.583 E26.6211
G1 X103.018 Y101.85 E26.66162
G1 X96.507 Y103.56 E26.99747
G1 X91.402 Y105.243 E27.26564
G1 X86.422 Y107.202 E27.53263
G1 X81.556 Y109.442 E27.79988
G1 X76.807 Y111.963 E28.06812
G1 X72.679 Y114.446 E28.30845
G1 X72.108 Y114.743 E28.34056
G1 X71.503 Y114.968 E28.37277
G1 X70.876 Y115.116 E28.40491
G1 X69.999 Y115.19 E28.44882
G1 X50.009 Y115.191 E29.44612
G1 X49.366 Y115.151 E29.47826
G1 X48.732 Y115.032 E29.51045
G1 X48.118 Y114.835 E29.54262
G1 X47.533 Y114.564 E29.57478
G1 X46.987 Y114.222 E29.60693
G1 X46.486 Y113.816 E29.6391
G1 X46.04 Y113.351 E29.67124
G1 X45.655 Y112.834 E29.7034
G1 X45.337 Y112.273 E29.73557
G1 X45.09 Y111.678 E29.76772
G1 X44.919 Y111.056 E29.7999
G1 X44.827 Y110.418 E29.83206
G1 X44.809 Y109.991 E29.85338
G1 X44.81 Y90.007 E30.85039
G1 X44.85 Y89.363 E30.88258
G1 X44.969 Y88.73 E30.91471
G1 X45.166 Y88.116 E30.94688
G1 X45.437 Y87.531 E30.97905
G1 X45.779 Y86.984 E31.01123
G1 X46.185 Y86.484 E31.04336
G1 X46.651 Y86.038 E31.07555
G1 X47.168 Y85.653 E31.1077
G1 X47.917 Y85.247 E31.15021
G1 F1500 E29.15021
G0 F3600 X81.035 Y85.247
G0 X82.32 Y85.247
G0 X82.37 Y87.878
G0 X82.3 Y87.948
;TYPE:WALL-INNER
G1 F1500 E31.15021
G1 F1800 X82.3 Y69.148 E32.08814
G1 X99.876 Y69.148 E32.96501
G1 X99.878 Y69.148 E32.96511
G1 X100.358 Y69.148 E32.98906
G1 X100.018 Y69.488 E33.00197
G1 X86.956 Y82.549 E33.92353
G1 X86.815 Y82.69 E33.93348
G1 X86.956 Y82.831 E33.9399
G1 X91.734 Y87.608 E34.27698
G1 X92.074 Y87.948 E34.30097
G1 X91.594 Y87.948 E34.31385
G1 X91.592 Y87.948 E34.31395
G1 X82.3 Y87.948 E34.77753
G0 F3600 X81.9 Y88.348
;TYPE:WALL-OUTER
G1 F1800 X81.9 Y68.748 E35.75538
G1 X100.842 Y68.748 E36.7004
G1 X100.844 Y68.748 E36.7005
G1 X101.324 Y68.748 E36.72445
G1 X100.984 Y69.088 E36.73735
G1 X87.522 Y82.549 E37.68713
G1 X87.381 Y82.69 E37.69708
G1 X87.522 Y82.831 E37.70351
G1 X92.7 Y88.008 E38.06881
G1 X93.04 Y88.348 E38.0928
G1 X92.56 Y88.348 E38.10568
G1 X92.558 Y88.348 E38.10578
G1 X81.9 Y88.348 E38.63751
G0 F3600 X81.9 Y88.148
G0 X82.37 Y87.878
G0 X82.479 Y87.57
;TYPE:SKIN
G1 F1800 X82.676 Y87.767 E38.65141
G0 F3600 X83.242 Y87.767
G1 F1800 X82.479 Y87.004 E38.70524
G1 X82.409 Y86.934
G0 F3600 X82.479 Y86.438
G1 F1800 X83.807 Y87.767 E38.79898
G1 X83.877 Y87.837
G0 F3600 X84.373 Y87.767
G1 F1800 X82.479 Y85.873 E38.93261
G1 X82.409 Y85.803
G0 F3600 X82.479 Y85.307
G1 F1800 X84.939 Y87.767 E39.10617
G1 X85.009 Y87.837
G0 F3600 X85.504 Y87.767
G1 F1800 X82.479 Y84.741 E39.31964
G1 X82.409 Y84.671
G0 F3600 X82.479 Y84.176
G1 F1800 X86.07 Y87.767 E39.573
G1 X86.14 Y87.837
G0 F3600 X86.636 Y87.767
G1 F1800 X82.479 Y83.61 E39.8663
G1 X82.409 Y83.54
G0 F3600 X82.479 Y83.044
G1 F1800 X87.201 Y87.767 E40.1995
G1 X87.271 Y87.837
G0 F3600 X87.767 Y87.767
G1 F1800 X82.479 Y82.479 E40.5726
G1 X82.409 Y82.409
G0 F3600 X82.479 Y81.913
G1 F1800 X88.333 Y87.767 E40.98563
G1 X88.403 Y87.837
G0 F3600 X88.898 Y87.767
G1 F1800 X82.479 Y81.347 E41.43856
G1 X82.409 Y81.277
G0 F3600 X82.479 Y80.782
G1 F1800 X89.464 Y87.767 E41.93139
G1 X89.534 Y87.837
G0 F3600 X90.03 Y87.767
G1 F1800 X82.479 Y80.216 E42.46415
G1 X82.409 Y80.146
G0 F3600 X82.479 Y79.65
G1 F1800 X90.595 Y87.767 E43.03682
G1 X90.665 Y87.837
G0 F3600 X91.161 Y87.767
G1 F1800 X82.479 Y79.084 E43.64941
G1 X82.409 Y79.014
G0 F3600 X82.479 Y78.519
G1 F1800 X86.604 Y82.644 E43.94045
G1 X86.674 Y82.714
G0 F3600 X86.887 Y82.361
G1 F1800 X82.479 Y77.953 E44.25146
G1 X82.409 Y77.883
G0 F3600 X82.479 Y77.387
G1 F1800 X87.17 Y82.078 E44.58244
G1 X87.24 Y82.148
G0 F3600 X87.452 Y81.795
G1 F1800 X82.479 Y76.822 E44.93331
G1 X82.409 Y76.752
G0 F3600 X82.479 Y76.256
G1 F1800 X87.735 Y81.513 E45.30418
G1 X87.805 Y81.583
G0 F3600 X88.018 Y81.23
G1 F1800 X82.479 Y75.69 E45.69503
G1 X82.409 Y75.62
G0 F3600 X82.479 Y75.125
G1 F1800 X88.301 Y80.947 E46.1058
G1 X88.371 Y81.017
G0 F3600 X88.584 Y80.664
G1 F1800 X82.479 Y74.559 E46.53654
G1 X82.409 Y74.489
G0 F3600 X82.479 Y73.993
G1 F1800 X88.867 Y80.381 E46.98725
G1 X88.937 Y80.451
G0 F3600 X89.149 Y80.098
G1 F1800 X82.479 Y73.428 E47.45785
G1 X82.409 Y73.358
G0 F3600 X82.479 Y72.862
G1 F1800 X89.432 Y79.816 E47.94846
G1 X89.502 Y79.886
G0 F3600 X89.715 Y79.533
G1 F1800 X82.479 Y72.296 E48.45903
G1 X82.409 Y72.226
G0 F3600 X82.479 Y71.731
G1 F1800 X89.998 Y79.25 E48.98954
G1 X90.068 Y79.32
G0 F3600 X90.281 Y78.967
G1 F1800 X82.479 Y71.165 E49.54001
G1 X82.409 Y71.095
G0 F3600 X82.479 Y70.599
G1 F1800 X90.564 Y78.684 E50.11045
G1 X90.634 Y78.754
G0 F3600 X90.846 Y78.401
G1 F1800 X82.479 Y70.033 E50.70083
G1 X82.409 Y69.963
G0 F3600 X82.479 Y69.468
G1 F1800 X91.129 Y78.119 E51.31116
G1 X91.199 Y78.189
G0 F3600 X91.412 Y77.836
G1 F1800 X82.904 Y69.328 E51.91145
G1 X82.834 Y69.258
G0 F3600 X83.47 Y69.328
G1 F1800 X91.695 Y77.553 E52.49177
G1 X91.765 Y77.623
G0 F3600 X91.978 Y77.27
G1 F1800 X84.036 Y69.328 E53.05212
G1 X83.966 Y69.258
G0 F3600 X84.601 Y69.328
G1 F1800 X92.261 Y76.987 E53.59254
G1 X92.331 Y77.057
G0 F3600 X92.544 Y76.704
G1 F1800 X85.167 Y69.328 E54.11299
G1 X85.097 Y69.258
G0 F3600 X85.733 Y69.328
G1 F1800 X92.826 Y76.421 E54.61344
G1 X92.896 Y76.491
G0 F3600 X93.109 Y76.139
G1 F1800 X86.298 Y69.328 E55.09399
G1 X86.228 Y69.258
G0 F3600 X86.864 Y69.328
G1 F1800 X93.393 Y75.857 E55.55465
G1 X93.463 Y75.927
G0 F3600 X93.676 Y75.574
G1 F1800 X87.43 Y69.328 E55.99534
G1 X87.36 Y69.258
G0 F3600 X87.995 Y69.328
G1 F1800 X93.958 Y75.291 E56.41606
G1 X94.028 Y75.361
G0 F3600 X94.241 Y75.008
G1 F1800 X88.561 Y69.328 E56.81681
G1 X88.491 Y69.258
G0 F3600 X89.127 Y69.328
G1 F1800 X94.524 Y74.725 E57.1976
G1 X94.594 Y74.795
G0 F3600 X94.807 Y74.442
G1 F1800 X89.692 Y69.328 E57.55846
G1 X89.622 Y69.258
G0 F3600 X90.258 Y69.328
G1 F1800 X95.09 Y74.159 E57.89935
G1 X95.16 Y74.229
G0 F3600 X95.373 Y73.877
G1 F1800 X90.824 Y69.328 E58.2203
G1 X90.754 Y69.258
G0 F3600 X91.39 Y69.328
G1 F1800 X95.655 Y73.594 E58.52126
G1 X95.725 Y73.664
G0 F3600 X95.938 Y73.311
G1 F1800 X91.955 Y69.328 E58.80228
G1 X91.885 Y69.258
G0 F3600 X92.521 Y69.328
G1 F1800 X96.221 Y73.028 E59.06333
G1 X96.291 Y73.098
G0 F3600 X96.504 Y72.745
G1 F1800 X93.087 Y69.328 E59.30442
G1 X93.017 Y69.258
G0 F3600 X93.652 Y69.328
G1 F1800 X96.787 Y72.462 E59.52558
G1 X96.857 Y72.532
G0 F3600 X97.07 Y72.18
G1 F1800 X94.218 Y69.328 E59.7268
G1 X94.148 Y69.258
G0 F3600 X94.784 Y69.328
G1 F1800 X97.353 Y71.897 E59.90806
G1 X97.423 Y71.967
G0 F3600 X97.635 Y71.614
G1 F1800 X95.349 Y69.328 E60.06935
G1 X95.279 Y69.258
G0 F3600 X95.915 Y69.328
G1 F1800 X97.918 Y71.331 E60.21067
G1 X97.988 Y71.401
G0 F3600 X98.201 Y71.048
G1 F1800 X96.481 Y69.328 E60.33203
G1 X96.411 Y69.258
G0 F3600 X97.046 Y69.328
G1 F1800 X98.484 Y70.765 E60.43345
G1 X98.554 Y70.835
G0 F3600 X98.767 Y70.482
G1 F1800 X97.612 Y69.328 E60.51491
G1 X97.542 Y69.258
G0 F3600 X98.178 Y69.328
G1 F1800 X99.05 Y70.2 E60.57643
G1 X99.12 Y70.27
G0 F3600 X99.332 Y69.917
G1 F1800 X98.743 Y69.328 E60.61799
G1 X98.673 Y69.258
G0 F3600 X99.309 Y69.328
G1 F1800 X99.615 Y69.634 E60.63958
G0 F3600 X100.266 Y69.186
G0 X100.577 Y69.181
G1 F1800 X100.678 Y69 E60.64221
G0 F3600 X100.266 Y69.186
G0 X86.775 Y82.69
G0 X91.982 Y87.91
G0 X92.245 Y88.002
;TYPE:SKIN
G1 F1800 X92.395 Y88.152 E60.64751
G92 E0
;MATBEGIN
G91                       ; Relative moves.
G1 E1 F500           ; Quicky extrude about the length of your melt zone.
G1 E-2 F1000       ; Do a quick retraction a little shorter than your melt zone. This is to avoid stringing.
G4 P2500             ; Wait 2.5 seconds so that filament can set.
G1 E-108 F 8000  ; Quickly pull filament out of the Y-splitter.
G90                       ; Abolute moves.
G92 E0          ; Set extruder position to 0
T1
G92 E0
G91                       ; Relative moves.
G1 E105 F2000     ; Quickly load next material 95%.
G1 E4.5 F2000         ; Slowly load last 5%. -0.5mm as to not put anything on the print, just make sure to account for it in the prime tower
G90                       ; Abolute moves.
G92 E0          ; Set extruder position to 0
;MATEND
M109 S260
G0 F3600 X92.395 Y88.152 Z0.3
G1 F1500 E-0.8
G0 F3600 X92.395 Y98.152
G0 X96.948 Y105.099
;TYPE:SKIRT
G1 F1500 E0
G1 F1800 X91.957 Y106.744 E0.26218
G1 X87.056 Y108.672 E0.52493
G1 X82.268 Y110.877 E0.78792
G1 X77.587 Y113.361 E1.0523
G1 X73.504 Y115.817 E1.29001
G1 X72.853 Y116.162 E1.32677
G1 X72.168 Y116.435 E1.36356
G1 X71.457 Y116.632 E1.40037
G1 X70.73 Y116.751 E1.43712
G1 X69.999 Y116.79 E1.47364
G1 X50.009 Y116.791 E2.47095
G1 X49.273 Y116.751 E2.50772
G1 X48.546 Y116.632 E2.54447
G1 X47.835 Y116.434 E2.58129
G1 X47.15 Y116.161 E2.61808
G1 X46.499 Y115.815 E2.65486
G1 X45.889 Y115.401 E2.69164
G1 X45.328 Y114.923 E2.72841
G1 X44.821 Y114.387 E2.76522
G1 X44.376 Y113.8 E2.80197
G1 X43.997 Y113.168 E2.83874
G1 X43.688 Y112.498 E2.87555
G1 X43.454 Y111.799 E2.91232
G1 X43.297 Y111.079 E2.94909
G1 X43.209 Y109.991 E3.00355
G1 X43.21 Y90.007 E4.00055
G1 X43.25 Y89.27 E4.03738
G1 X43.369 Y88.543 E4.07413
G1 X43.567 Y87.833 E4.1109
G1 X43.84 Y87.148 E4.14769
G1 X44.186 Y86.497 E4.18447
G1 X44.6 Y85.887 E4.22125
G1 X45.078 Y85.325 E4.25806
G1 X45.614 Y84.819 E4.29484
G1 X46.202 Y84.373 E4.33165
G1 X46.834 Y83.994 E4.36842
G1 X47.272 Y83.782 E4.3927
G1 X49.194 Y82.937 E4.49744
G1 X54.037 Y80.581 E4.76614
G1 X56.258 Y79.38 E4.89211
G1 X60.838 Y76.647 E5.15819
G1 X65.201 Y73.699 E5.42089
G1 X69.386 Y70.512 E5.68333
G1 X73.398 Y67.081 E5.9467
G1 X77.012 Y63.636 E6.1958
