; generated by Slic3r 1.3.0-dev on 2017-05-25 at 09:28:33

; external perimeters extrusion width = 0.40mm (3.02mm^3/s)
; perimeters extrusion width = 0.48mm (7.54mm^3/s)
; infill extrusion width = 0.48mm (10.05mm^3/s)
; solid infill extrusion width = 0.48mm (2.51mm^3/s)
; top infill extrusion width = 0.48mm (1.88mm^3/s)

; external perimeters extrusion width = 0.40mm (3.02mm^3/s)
; perimeters extrusion width = 0.48mm (7.54mm^3/s)
; infill extrusion width = 0.48mm (10.05mm^3/s)
; solid infill extrusion width = 0.48mm (2.51mm^3/s)
; top infill extrusion width = 0.48mm (1.88mm^3/s)

M107
M190 S65 ; set bed temperature and wait for it to be reached
M104 S235 T0 ; set temperature
M104 S235 T1 ; set temperature
G28 ; home all axes
G1 Z5 F5000 ; lift nozzle

; Filament gcode

; Filament gcode

M109 S235 T0 ; set temperature and wait for it to be reached
M109 S235 T1 ; set temperature and wait for it to be reached
G21 ; set units to millimeters
G90 ; use absolute coordinates
M82 ; use absolute distances for extrusion
G92 E0
T0
G92 E0
G1 Z0.400 F7800.000
G1 E-2.00000 F2400.00000
G92 E0
G1 X77.756 Y81.578 F7800.000
G1 E2.00000 F2400.00000
G1 F1800
G1 X79.512 Y80.078 E2.27422
G1 X81.672 Y79.262 E2.54845
G1 X82.929 Y79.144 E2.69842
G1 X102.929 Y79.144 E5.07372
G1 X105.204 Y79.541 E5.34794
G1 X107.677 Y81.110 E5.69581
G1 X121.819 Y95.252 E8.07111
G1 X123.146 Y97.141 E8.34534
G1 X123.755 Y99.369 E8.61956
G1 X123.574 Y101.670 E8.89379
G1 X122.624 Y103.775 E9.16801
G1 X121.819 Y104.748 E9.31797
G1 X107.677 Y118.890 E11.69328
G1 X105.787 Y120.217 E11.96751
G1 X103.560 Y120.827 E12.24173
G1 X100.360 Y120.345 E12.62615
G1 X80.360 Y112.061 E15.19716
G1 X78.410 Y110.824 E15.47138
G1 X76.995 Y108.999 E15.74561
G1 X76.215 Y105.858 E16.13002
G1 X76.215 Y85.858 E18.50532
G1 X76.612 Y83.583 E18.77955
G1 X77.726 Y81.630 E19.04665
G1 E17.04665 F2400.00000
G92 E0
G1 X102.929 Y111.557 F7800.000
G1 E2.00000 F2400.00000
G1 F1800
G1 X91.372 Y100.000 E3.94103
G1 X102.929 Y88.443 E5.88205
G1 X114.485 Y100.000 E7.82306
G1 X102.971 Y111.514 E9.75696
G1 X102.929 Y112.566 F7800.000
G1 F1800
G1 X90.362 Y100.000 E11.86763
G1 X102.929 Y87.434 E13.97828
G1 X115.495 Y100.000 E16.08893
G1 X102.971 Y112.524 E18.19246
G1 X102.929 Y113.576 F7800.000
G1 F1800
G1 X89.352 Y100.000 E20.47276
G1 X102.929 Y86.424 E22.75305
G1 X116.505 Y100.000 E25.03334
G1 X102.971 Y113.534 E27.30650
G1 X102.730 Y113.229 F7800.000
G1 E25.30650 F2400.00000
G92 E0
G1 X102.651 Y110.824 F7800.000
G1 E2.00000 F2400.00000
G1 F1800
G1 X113.753 Y99.722 E3.94717
G1 X113.226 Y99.195 E4.03965
G1 X102.124 Y110.297 E5.98682
G1 X101.596 Y109.770 E6.07931
G1 X112.699 Y98.668 E8.02647
G1 X112.171 Y98.140 E8.11896
G1 X101.069 Y109.242 E10.06613
G1 X100.542 Y108.715 E10.15861
G1 X111.644 Y97.613 E12.10578
G1 X111.117 Y97.086 E12.19827
G1 X100.015 Y108.188 E14.14543
G1 X99.487 Y107.660 E14.23792
G1 X110.589 Y96.558 E16.18508
G1 X110.062 Y96.031 E16.27757
G1 X98.960 Y107.133 E18.22474
G1 X98.433 Y106.606 E18.31722
G1 X109.535 Y95.504 E20.26439
G1 X109.007 Y94.976 E20.35687
G1 X97.905 Y106.078 E22.30404
G1 X97.378 Y105.551 E22.39653
G1 X108.480 Y94.449 E24.34369
G1 X107.953 Y93.922 E24.43618
G1 X96.851 Y105.024 E26.38334
G1 X96.323 Y104.496 E26.47583
G1 X107.425 Y93.394 E28.42299
G1 X106.898 Y92.867 E28.51548
G1 X95.796 Y103.969 E30.46264
G1 X95.269 Y103.442 E30.55513
G1 X106.371 Y92.340 E32.50230
G1 X105.843 Y91.812 E32.59478
G1 X94.741 Y102.914 E34.54195
G1 X94.214 Y102.387 E34.63443
G1 X105.316 Y91.285 E36.58160
G1 X104.789 Y90.758 E36.67408
G1 X93.687 Y101.860 E38.62125
G1 X93.159 Y101.332 E38.71373
G1 X104.261 Y90.230 E40.66090
G1 X103.734 Y89.703 E40.75338
G1 X92.632 Y100.805 E42.70055
G1 X92.105 Y100.278 E42.79303
G1 X103.207 Y89.176 E44.74020
G1 E34.74020 F2400.00000
G92 E0
T1
G92 E0
G1 E-2.00000 F2400.00000
G92 E0
G1 X86.201 Y100.000 F7800.000
G1 E2.00000 F2400.00000
G1 F1800
G1 X90.231 Y104.030 E2.67680
G1 X84.757 Y104.030 E3.32686
G1 X84.757 Y87.686 E5.26788
G1 X98.515 Y87.686 E6.90182
G1 X86.244 Y99.958 E8.96291
G1 X87.211 Y100.000 F7800.000
G1 F1800
G1 X91.955 Y104.744 E9.75966
G1 X84.043 Y104.744 E10.69930
G1 X84.043 Y86.972 E12.80996
G1 X100.239 Y86.972 E14.73348
G1 X87.254 Y99.958 E16.91452
G1 X88.221 Y100.000 F7800.000
G1 F1800
G1 X93.679 Y105.458 E17.83122
G1 X83.329 Y105.458 E19.06045
G1 X83.329 Y86.258 E21.34074
G1 X101.963 Y86.258 E23.55384
G1 X88.264 Y99.958 E25.85484
G1 X88.062 Y100.367 F7800.000
G1 E23.85484 F2400.00000
G92 E0
G1 X85.749 Y100.002 F7800.000
G1 E2.00000 F2400.00000
G1 F1800
G1 X85.194 Y100.558 E2.09507
G1 X85.194 Y101.570 E2.21749
G1 X86.255 Y100.508 E2.39913
G1 X86.761 Y101.014 E2.48569
G1 X85.194 Y102.581 E2.75389
G1 X85.194 Y103.593 E2.87631
G1 X87.267 Y101.520 E3.23108
G1 X87.773 Y102.026 E3.31764
G1 X86.205 Y103.593 E3.58585
G1 X87.217 Y103.593 E3.70827
G1 X88.278 Y102.532 E3.88990
G1 X88.784 Y103.038 E3.97647
G1 X88.229 Y103.593 E4.07154
G1 E2.07154 F2400.00000
G92 E0
G1 X85.194 Y99.997 F7800.000
G1 E2.00000 F2400.00000
G1 F1800
G1 X97.069 Y88.123 E4.03210
G1 X96.039 Y88.123 E4.15661
G1 X85.194 Y98.968 E6.01262
G1 X85.194 Y97.939 E6.13714
G1 X95.010 Y88.123 E7.81705
G1 X93.981 Y88.123 E7.94157
G1 X85.194 Y96.910 E9.44539
G1 X85.194 Y95.881 E9.56991
G1 X92.952 Y88.123 E10.89764
G1 X91.923 Y88.123 E11.02215
G1 X85.194 Y94.852 E12.17379
G1 X85.194 Y93.823 E12.29830
G1 X90.894 Y88.123 E13.27385
G1 X89.865 Y88.123 E13.39837
G1 X85.194 Y92.794 E14.19782
G1 X85.194 Y91.765 E14.32233
G1 X88.836 Y88.123 E14.94569
G1 X87.807 Y88.123 E15.07021
G1 X85.194 Y90.736 E15.51748
G1 X85.194 Y89.707 E15.64199
G1 X86.778 Y88.123 E15.91317
G1 X85.749 Y88.123 E16.03768
G1 X85.194 Y88.678 E16.13274
M104 S230 T0 ; set temperature
M104 S230 T1 ; set temperature
M140 S60 ; set bed temperature
G1 Z0.700 F7800.000
G1 X87.378 Y100.000 F7800.000
G1 F3600
G1 X92.240 Y104.862 E16.49196
G1 X83.925 Y104.862 E16.92636
G1 X83.925 Y86.854 E17.86717
G1 X100.524 Y86.854 E18.73438
G1 X87.420 Y99.958 E19.70255
G1 X87.970 Y100.000 F7800.000
G1 F3600
G1 X93.251 Y105.281 E20.09271
G1 X83.506 Y105.281 E20.60183
G1 X83.506 Y86.435 E21.58641
G1 X101.535 Y86.435 E22.52834
G1 X88.013 Y99.958 E23.52745
G1 X88.504 Y100.000 F7800.000
G1 F1800
G1 X94.162 Y105.658 E23.86239
G1 X83.129 Y105.658 E24.32423
G1 X83.129 Y86.058 E25.14469
G1 X102.446 Y86.058 E25.95332
G1 X88.546 Y99.958 E26.77617
G1 X88.221 Y100.283 F7800.000
G1 X84.181 Y104.280 F7800.000
G1 F1200
G1 X84.507 Y104.606 E26.80052
G1 X85.106 Y104.606 E26.83215
G1 X84.181 Y103.681 E26.90123
G1 X84.181 Y103.082 E26.93286
G1 X85.705 Y104.606 E27.04668
G1 X86.304 Y104.606 E27.07831
G1 X84.181 Y102.483 E27.23685
G1 X84.181 Y101.884 E27.26848
G1 X86.903 Y104.606 E27.47176
G1 X87.501 Y104.606 E27.50339
G1 X84.181 Y101.285 E27.75140
G1 X84.181 Y100.687 E27.78303
G1 X88.100 Y104.606 E28.07576
G1 X88.699 Y104.606 E28.10739
G1 X84.181 Y100.088 E28.44486
G1 X84.181 Y99.489 E28.47649
G1 X89.298 Y104.606 E28.85869
G1 X89.897 Y104.606 E28.89032
G1 X84.181 Y98.890 E29.31726
G1 X84.181 Y98.291 E29.34889
G1 X90.496 Y104.606 E29.82055
G1 X91.095 Y104.606 E29.85218
G1 X84.181 Y97.692 E30.36857
G1 X84.181 Y97.093 E30.40020
G1 X87.100 Y100.012 E30.61820
G1 X87.399 Y99.712 E30.64056
G1 X84.181 Y96.495 E30.88092
G1 X84.181 Y95.896 E30.91255
G1 X87.698 Y99.413 E31.17528
G1 X87.998 Y99.114 E31.19765
G1 X84.181 Y95.297 E31.48274
G1 X84.181 Y94.698 E31.51437
G1 X88.297 Y98.814 E31.82182
G1 X88.597 Y98.515 E31.84419
G1 X84.181 Y94.099 E32.17401
G1 X84.181 Y93.500 E32.20564
G1 X88.896 Y98.215 E32.55783
G1 X89.196 Y97.916 E32.58020
G1 X84.181 Y92.901 E32.95475
G1 X84.181 Y92.302 E32.98638
G1 X89.495 Y97.616 E33.38330
G1 X89.794 Y97.317 E33.40567
G1 X84.181 Y91.704 E33.82495
G1 X84.181 Y91.105 E33.85658
G1 X90.094 Y97.018 E34.29823
G1 X90.393 Y96.718 E34.32060
G1 X84.181 Y90.506 E34.78461
G1 X84.181 Y89.907 E34.81624
G1 X90.693 Y96.419 E35.30263
G1 X90.992 Y96.119 E35.32499
G1 X84.181 Y89.308 E35.83374
G1 X84.181 Y88.709 E35.86537
G1 X91.292 Y95.820 E36.39648
G1 X91.591 Y95.520 E36.41885
G1 X84.181 Y88.110 E36.97233
G1 X84.181 Y87.512 E37.00396
G1 X91.890 Y95.221 E37.57980
G1 X92.190 Y94.922 E37.60217
G1 X84.378 Y87.110 E38.18565
G1 X84.977 Y87.110 E38.21728
G1 X92.489 Y94.622 E38.77839
G1 X92.789 Y94.323 E38.80076
G1 X85.576 Y87.110 E39.33950
G1 X86.175 Y87.110 E39.37113
G1 X93.088 Y94.023 E39.88752
G1 X93.388 Y93.724 E39.90988
G1 X86.774 Y87.110 E40.40390
G1 X87.373 Y87.110 E40.43553
G1 X93.687 Y93.424 E40.90718
G1 X93.986 Y93.125 E40.92955
G1 X87.971 Y87.110 E41.37883
G1 X88.570 Y87.110 E41.41046
G1 X94.286 Y92.826 E41.83739
G1 X94.585 Y92.526 E41.85975
G1 X89.169 Y87.110 E42.26431
G1 X89.768 Y87.110 E42.29594
G1 X94.885 Y92.227 E42.67813
G1 X95.184 Y91.927 E42.70049
G1 X90.367 Y87.110 E43.06032
G1 X90.966 Y87.110 E43.09195
G1 X95.484 Y91.628 E43.42941
G1 X95.783 Y91.328 E43.45177
G1 X91.565 Y87.110 E43.76686
G1 X92.163 Y87.110 E43.79849
G1 X96.083 Y91.029 E44.09122
G1 X96.382 Y90.730 E44.11359
G1 X92.762 Y87.110 E44.38395
G1 X93.361 Y87.110 E44.41558
G1 X96.681 Y90.430 E44.66358
G1 X96.981 Y90.131 E44.68594
G1 X93.960 Y87.110 E44.91157
G1 X94.559 Y87.110 E44.94320
G1 X97.280 Y89.831 E45.14647
G1 X97.580 Y89.532 E45.16883
G1 X95.158 Y87.110 E45.34973
G1 X95.757 Y87.110 E45.38136
G1 X97.879 Y89.232 E45.53990
G1 X98.179 Y88.933 E45.56226
G1 X96.355 Y87.110 E45.69843
G1 X96.954 Y87.110 E45.73006
G1 X98.478 Y88.634 E45.84387
G1 X98.777 Y88.334 E45.86623
G1 X97.553 Y87.110 E45.95767
G1 X98.152 Y87.110 E45.98930
G1 X99.077 Y88.035 E46.05837
G1 X99.376 Y87.735 E46.08074
G1 X98.751 Y87.110 E46.12744
G1 X99.350 Y87.110 E46.15907
G1 X99.676 Y87.436 E46.18341
G1 E36.18341 F2400.00000
G92 E0
T0
G92 E0
G1 X90.196 Y100.000 F7800.000
G1 E10.00000 F2400.00000
G1 F3600
G1 X102.929 Y87.267 E10.94081
G1 X115.662 Y100.000 E11.88162
G1 X102.929 Y112.733 E12.82244
G1 X90.238 Y100.042 E13.76012
G1 X89.603 Y100.000 F7800.000
G1 F3600
G1 X102.929 Y86.674 E14.74470
G1 X116.255 Y100.000 E15.72928
G1 X102.929 Y113.326 E16.71386
G1 X89.646 Y100.042 E17.69531
G1 X89.070 Y100.000 F7800.000
G1 F1800
G1 X102.929 Y86.141 E18.51577
G1 X116.788 Y100.000 E19.33623
G1 X102.929 Y113.859 E20.15669
G1 X89.112 Y100.042 E20.97464
G1 X89.416 Y99.800 F7800.000
G1 X90.625 Y99.837 F7800.000
G1 F1200
G1 X103.092 Y112.304 E21.91856
G1 X103.395 Y112.000 E21.94154
G1 X90.929 Y99.533 E22.88546
G1 X91.232 Y99.230 E22.90844
G1 X103.699 Y111.697 E23.85236
G1 X104.002 Y111.393 E23.87534
G1 X91.536 Y98.926 E24.81926
G1 X91.839 Y98.623 E24.84224
G1 X104.306 Y111.090 E25.78616
G1 X104.610 Y110.786 E25.80914
G1 X92.143 Y98.319 E26.75306
G1 X92.446 Y98.016 E26.77604
G1 X104.913 Y110.483 E27.71996
G1 X105.217 Y110.179 E27.74294
G1 X92.750 Y97.712 E28.68685
G1 X93.053 Y97.409 E28.70984
G1 X105.520 Y109.876 E29.65375
G1 X105.824 Y109.572 E29.67673
G1 X93.357 Y97.105 E30.62065
G1 X93.660 Y96.802 E30.64363
G1 X106.127 Y109.269 E31.58755
G1 X106.431 Y108.965 E31.61053
G1 X93.964 Y96.498 E32.55445
G1 X94.267 Y96.195 E32.57743
G1 X106.734 Y108.662 E33.52135
G1 X107.038 Y108.358 E33.54433
G1 X94.571 Y95.891 E34.48824
G1 X94.874 Y95.588 E34.51122
G1 X107.341 Y108.055 E35.45514
G1 X107.645 Y107.751 E35.47812
G1 X95.178 Y95.284 E36.42204
G1 X95.481 Y94.981 E36.44502
G1 X107.948 Y107.447 E37.38894
G1 X108.252 Y107.144 E37.41192
G1 X95.785 Y94.677 E38.35583
G1 X96.088 Y94.374 E38.37881
G1 X108.555 Y106.840 E39.32273
G1 X108.859 Y106.537 E39.34571
G1 X96.392 Y94.070 E40.28963
G1 X96.696 Y93.767 E40.31261
G1 X109.162 Y106.233 E41.25653
G1 X109.466 Y105.930 E41.27951
G1 X96.999 Y93.463 E42.22342
G1 X97.303 Y93.160 E42.24640
G1 X109.769 Y105.626 E43.19032
G1 X110.073 Y105.323 E43.21330
G1 X97.606 Y92.856 E44.15722
G1 X97.910 Y92.552 E44.18020
G1 X110.376 Y105.019 E45.12411
G1 X110.680 Y104.716 E45.14709
G1 X98.213 Y92.249 E46.09101
G1 X98.517 Y91.945 E46.11399
G1 X110.983 Y104.412 E47.05791
G1 X111.287 Y104.109 E47.08089
G1 X98.820 Y91.642 E48.02480
G1 X99.124 Y91.338 E48.04778
G1 X111.591 Y103.805 E48.99170
G1 X111.894 Y103.502 E49.01468
G1 X99.427 Y91.035 E49.95859
G1 X99.731 Y90.731 E49.98158
G1 X112.198 Y103.198 E50.92549
G1 X112.501 Y102.895 E50.94847
G1 X100.034 Y90.428 E51.89239
G1 X100.338 Y90.124 E51.91537
G1 X112.805 Y102.591 E52.85928
G1 X113.108 Y102.288 E52.88226
G1 X100.641 Y89.821 E53.82618
G1 X100.945 Y89.517 E53.84916
G1 X113.412 Y101.984 E54.79307
G1 X113.715 Y101.681 E54.81605
G1 X101.248 Y89.214 E55.75997
G1 X101.552 Y88.910 E55.78295
G1 X114.019 Y101.377 E56.72686
G1 X114.322 Y101.073 E56.74985
G1 X101.855 Y88.607 E57.69376
G1 X102.159 Y88.303 E57.71674
G1 X114.626 Y100.770 E58.66065
G1 X114.929 Y100.466 E58.68364
G1 X102.462 Y88.000 E59.62755
G1 X102.766 Y87.696 E59.65053
G1 X115.233 Y100.163 E60.59444
G1 Z1.000 F7800.000
G1 X90.196 Y100.000 F7800.000
G1 F3600
G1 X102.929 Y87.267 E61.53526
G1 X115.662 Y100.000 E62.47607
G1 X102.929 Y112.733 E63.41688
G1 X90.238 Y100.042 E64.35456
G1 X89.603 Y100.000 F7800.000
G1 F3600
G1 X102.929 Y86.674 E65.33914
G1 X116.255 Y100.000 E66.32372
G1 X102.929 Y113.326 E67.30830
G1 X89.646 Y100.042 E68.28975
G1 X89.070 Y100.000 F7800.000
G1 F1800
G1 X102.929 Y86.141 E69.11021
G1 X116.788 Y100.000 E69.93067
G1 X102.929 Y113.859 E70.75113
G1 X89.112 Y100.042 E71.56909
G1 X89.416 Y99.800 F7800.000
G1 X102.766 Y112.304 F7800.000
G1 F1200
G1 X115.233 Y99.837 E72.51300
G1 X114.929 Y99.533 E72.53599
G1 X102.462 Y112.000 E73.47990
G1 X102.159 Y111.697 E73.50288
G1 X114.626 Y99.230 E74.44680
G1 X114.322 Y98.926 E74.46978
G1 X101.855 Y111.393 E75.41370
G1 X101.552 Y111.090 E75.43668
G1 X114.019 Y98.623 E76.38060
G1 X113.715 Y98.319 E76.40358
G1 X101.248 Y110.786 E77.34749
G1 X100.945 Y110.483 E77.37048
G1 X113.412 Y98.016 E78.31439
G1 X113.108 Y97.712 E78.33737
G1 X100.641 Y110.179 E79.28129
G1 X100.338 Y109.876 E79.30427
G1 X112.805 Y97.409 E80.24819
G1 X112.501 Y97.105 E80.27117
G1 X100.034 Y109.572 E81.21509
G1 X99.731 Y109.269 E81.23807
G1 X112.198 Y96.802 E82.18198
G1 X111.894 Y96.498 E82.20496
G1 X99.427 Y108.965 E83.14888
G1 X99.124 Y108.662 E83.17186
G1 X111.591 Y96.195 E84.11578
G1 X111.287 Y95.891 E84.13876
G1 X98.820 Y108.358 E85.08268
G1 X98.517 Y108.055 E85.10566
G1 X110.984 Y95.588 E86.04957
G1 X110.680 Y95.284 E86.07255
G1 X98.213 Y107.751 E87.01647
G1 X97.910 Y107.448 E87.03945
G1 X110.376 Y94.981 E87.98337
G1 X110.073 Y94.677 E88.00635
G1 X97.606 Y107.144 E88.95026
G1 X97.303 Y106.840 E88.97325
G1 X109.769 Y94.374 E89.91716
G1 X109.466 Y94.070 E89.94014
G1 X96.999 Y106.537 E90.88406
G1 X96.696 Y106.233 E90.90704
G1 X109.162 Y93.767 E91.85096
G1 X108.859 Y93.463 E91.87394
G1 X96.392 Y105.930 E92.81785
G1 X96.088 Y105.626 E92.84083
G1 X108.555 Y93.160 E93.78475
G1 X108.252 Y92.856 E93.80773
G1 X95.785 Y105.323 E94.75165
G1 X95.481 Y105.019 E94.77463
G1 X107.948 Y92.552 E95.71854
G1 X107.645 Y92.249 E95.74152
G1 X95.178 Y104.716 E96.68544
G1 X94.874 Y104.412 E96.70842
G1 X107.341 Y91.945 E97.65234
G1 X107.038 Y91.642 E97.67532
G1 X94.571 Y104.109 E98.61923
G1 X94.267 Y103.805 E98.64222
G1 X106.734 Y91.338 E99.58613
G1 X106.431 Y91.035 E99.60911
G1 X93.964 Y103.502 E100.55303
G1 X93.660 Y103.198 E100.57601
G1 X106.127 Y90.731 E101.51992
G1 X105.824 Y90.428 E101.54290
G1 X93.357 Y102.895 E102.48682
G1 X93.053 Y102.591 E102.50980
G1 X105.520 Y90.124 E103.45372
G1 X105.217 Y89.821 E103.47670
G1 X92.750 Y102.288 E104.42061
G1 X92.446 Y101.984 E104.44359
G1 X104.913 Y89.517 E105.38751
G1 X104.610 Y89.214 E105.41049
G1 X92.143 Y101.681 E106.35441
G1 X91.839 Y101.377 E106.37739
G1 X104.306 Y88.910 E107.32130
G1 X104.002 Y88.607 E107.34428
G1 X91.536 Y101.074 E108.28820
G1 X91.232 Y100.770 E108.31118
G1 X103.699 Y88.303 E109.25509
G1 X103.395 Y88.000 E109.27808
G1 X90.929 Y100.466 E110.22199
G1 X90.625 Y100.163 E110.24497
G1 X103.092 Y87.696 E111.18889
G1 E101.18889 F2400.00000
G92 E0
T1
G92 E0
G1 X87.378 Y100.000 F7800.000
G1 E10.00000 F2400.00000
G1 F3600
G1 X92.240 Y104.862 E10.35921
G1 X83.925 Y104.862 E10.79361
G1 X83.925 Y86.854 E11.73443
G1 X100.524 Y86.854 E12.60164
G1 X87.420 Y99.958 E13.56980
G1 X87.970 Y100.000 F7800.000
G1 F3600
G1 X93.251 Y105.281 E13.95996
