; generated by Slic3r 1.3.0-dev on 2017-05-22 at 18:14:10

; external perimeters extrusion width = 0.40mm (0.00mm^3/s)
; perimeters extrusion width = 0.67mm (6.28mm^3/s)
; infill extrusion width = 0.67mm (8.80mm^3/s)
; solid infill extrusion width = 0.67mm (3.77mm^3/s)
; top infill extrusion width = 0.67mm (2.51mm^3/s)
; support material extrusion width = 0.40mm (4.28mm^3/s)

; external perimeters extrusion width = 0.40mm (0.00mm^3/s)
; perimeters extrusion width = 0.67mm (6.28mm^3/s)
; infill extrusion width = 0.67mm (8.80mm^3/s)
; solid infill extrusion width = 0.67mm (3.77mm^3/s)
; top infill extrusion width = 0.67mm (2.51mm^3/s)
; support material extrusion width = 0.40mm (4.28mm^3/s)

M107
M190 S60 ; set bed temperature and wait for it to be reached
M104 S275 T0 ; set temperature
M104 S275 T1 ; set temperature
M80 ; psu on
G28 ; home all axes
G1 Z5 F5000 ; lift nozzle
G0 F1980 X30; move nozzle over bed
; Filament gcode

; Filament gcode

M109 S275 T0 ; set temperature and wait for it to be reached
M109 S275 T1 ; set temperature and wait for it to be reached
G21 ; set units to millimeters
G90 ; use absolute coordinates
M83 ; use relative distances for extrusion
T0
G1 E-0.80000 F2400.00000
G1 Z0.200 F7200.000
G1 X70.559 Y74.515 F7200.000
G1 E0.80000 F2400.00000
G1 F900
G1 X71.260 Y73.956 E0.01469
G1 X72.096 Y73.404 E0.01642
G1 X72.885 Y72.979 E0.01469
G1 X73.807 Y72.585 E0.01643
G1 X74.660 Y72.308 E0.01469
G1 X75.637 Y72.085 E0.01643
G1 X76.525 Y71.964 E0.01469
G1 X77.150 Y71.915 E0.01027
G1 X107.625 Y71.910 E0.49940
G1 X108.475 Y71.964 E0.01395
G1 X109.363 Y72.085 E0.01469
G1 X110.340 Y72.308 E0.01643
G1 X111.193 Y72.585 E0.01469
G1 X112.115 Y72.979 E0.01643
G1 X112.904 Y73.404 E0.01469
G1 X113.740 Y73.956 E0.01642
G1 X114.442 Y74.515 E0.01469
G1 X115.166 Y75.207 E0.01642
G1 X115.756 Y75.883 E0.01469
G1 X116.345 Y76.693 E0.01642
G1 X116.805 Y77.463 E0.01469
G1 X117.239 Y78.366 E0.01642
G1 X117.555 Y79.205 E0.01470
G1 X117.821 Y80.171 E0.01642
G1 X117.981 Y81.053 E0.01469
G1 X118.065 Y81.801 E0.01233
G1 X118.091 Y82.500 E0.01146
G1 X118.091 Y112.500 E0.49162
G1 X118.065 Y113.199 E0.01146
G1 X117.981 Y113.947 E0.01233
G1 X117.821 Y114.829 E0.01469
G1 X117.555 Y115.795 E0.01642
G1 X117.239 Y116.634 E0.01470
G1 X116.805 Y117.537 E0.01642
G1 X116.345 Y118.307 E0.01469
G1 X115.756 Y119.118 E0.01642
G1 X115.166 Y119.793 E0.01469
G1 X114.442 Y120.485 E0.01642
G1 X113.741 Y121.044 E0.01469
G1 X112.904 Y121.596 E0.01642
G1 X112.115 Y122.021 E0.01469
G1 X111.193 Y122.415 E0.01642
G1 X110.340 Y122.692 E0.01469
G1 X109.363 Y122.915 E0.01643
G1 X108.475 Y123.036 E0.01469
G1 X107.850 Y123.085 E0.01028
G1 X107.500 Y123.091 E0.00573
G1 X77.500 Y123.091 E0.49162
G1 X76.453 Y123.033 E0.01719
G1 X75.585 Y122.906 E0.01438
G1 X74.711 Y122.706 E0.01470
G1 X73.757 Y122.397 E0.01642
G1 X72.933 Y122.044 E0.01469
G1 X72.050 Y121.569 E0.01642
G1 X71.302 Y121.075 E0.01469
G1 X70.519 Y120.451 E0.01642
G1 X69.871 Y119.831 E0.01469
G1 X69.211 Y119.076 E0.01643
G1 X68.684 Y118.351 E0.01469
G1 X68.170 Y117.490 E0.01643
G1 X67.781 Y116.683 E0.01469
G1 X67.429 Y115.744 E0.01643
G1 X67.191 Y114.880 E0.01469
G1 X67.012 Y113.894 E0.01642
G1 X66.931 Y113.001 E0.01469
G1 X66.909 Y112.500 E0.00822
G1 X66.909 Y82.500 E0.49162
G1 X66.935 Y81.801 E0.01147
G1 X67.019 Y81.054 E0.01232
G1 X67.179 Y80.171 E0.01469
G1 X67.445 Y79.205 E0.01643
G1 X67.760 Y78.366 E0.01469
G1 X68.195 Y77.463 E0.01643
G1 X68.655 Y76.693 E0.01469
G1 X69.244 Y75.882 E0.01643
G1 X69.834 Y75.207 E0.01469
G1 X70.515 Y74.556 E0.01544
G1 X70.681 Y74.669 F7200.000
G1 F900
G1 X71.382 Y74.110 E0.01469
G1 X72.189 Y73.577 E0.01585
G1 X72.979 Y73.152 E0.01469
G1 X73.868 Y72.772 E0.01585
G1 X74.721 Y72.495 E0.01469
G1 X75.663 Y72.280 E0.01585
G1 X76.552 Y72.160 E0.01469
G1 X77.154 Y72.112 E0.00991
G1 X107.621 Y72.107 E0.49926
G1 X108.448 Y72.160 E0.01359
G1 X109.337 Y72.280 E0.01469
G1 X110.279 Y72.495 E0.01585
G1 X111.132 Y72.772 E0.01469
G1 X112.021 Y73.152 E0.01585
G1 X112.811 Y73.577 E0.01469
G1 X113.618 Y74.110 E0.01584
G1 X114.319 Y74.669 E0.01469
G1 X115.017 Y75.337 E0.01584
G1 X115.607 Y76.012 E0.01469
G1 X116.176 Y76.794 E0.01584
G1 X116.635 Y77.564 E0.01469
G1 X117.055 Y78.435 E0.01584
G1 X117.370 Y79.275 E0.01470
G1 X117.627 Y80.206 E0.01584
G1 X117.787 Y81.089 E0.01469
G1 X117.869 Y81.810 E0.01189
G1 X117.894 Y82.500 E0.01132
G1 X117.894 Y112.500 E0.49162
G1 X117.869 Y113.190 E0.01132
G1 X117.787 Y113.911 E0.01189
G1 X117.627 Y114.794 E0.01469
G1 X117.370 Y115.725 E0.01584
G1 X117.055 Y116.565 E0.01470
G1 X116.635 Y117.436 E0.01584
G1 X116.176 Y118.206 E0.01469
G1 X115.607 Y118.988 E0.01584
G1 X115.017 Y119.663 E0.01469
G1 X114.319 Y120.331 E0.01584
G1 X113.618 Y120.890 E0.01469
G1 X112.811 Y121.423 E0.01584
G1 X112.021 Y121.848 E0.01469
G1 X111.132 Y122.228 E0.01584
G1 X110.279 Y122.505 E0.01469
G1 X109.337 Y122.720 E0.01585
G1 X108.448 Y122.840 E0.01469
G1 X107.845 Y122.888 E0.00992
G1 X107.500 Y122.894 E0.00566
G1 X77.500 Y122.894 E0.49162
G1 X76.466 Y122.837 E0.01697
G1 X75.629 Y122.714 E0.01387
G1 X74.754 Y122.514 E0.01469
G1 X73.835 Y122.215 E0.01584
G1 X73.011 Y121.863 E0.01469
G1 X72.159 Y121.405 E0.01585
G1 X71.411 Y120.911 E0.01469
G1 X70.655 Y120.308 E0.01584
G1 X70.007 Y119.689 E0.01469
G1 X69.371 Y118.960 E0.01585
G1 X68.844 Y118.235 E0.01469
G1 X68.348 Y117.405 E0.01585
G1 X67.959 Y116.597 E0.01469
G1 X67.619 Y115.692 E0.01585
G1 X67.381 Y114.828 E0.01469
G1 X67.208 Y113.876 E0.01585
G1 X67.128 Y112.983 E0.01469
G1 X67.106 Y112.500 E0.00793
G1 X67.106 Y82.500 E0.49162
G1 X67.131 Y81.809 E0.01132
G1 X67.213 Y81.089 E0.01188
G1 X67.373 Y80.207 E0.01469
G1 X67.630 Y79.274 E0.01585
G1 X67.945 Y78.435 E0.01469
G1 X68.365 Y77.564 E0.01585
G1 X68.824 Y76.794 E0.01469
G1 X69.393 Y76.012 E0.01585
G1 X69.982 Y75.337 E0.01469
G1 X70.638 Y74.710 E0.01486
G91                       ; Relative moves.
G1 X50 Y50 Z2 F1000
G1 E4 F500           ; Quicky extrude about the length of your melt zone.
G1 E-2 F1000       ; Do a quick retraction a little shorter than your melt zone. This is to avoid stringing.
G4 P2500             ; Wait 2.5 seconds so that filament can set.
G1 E-108 F 8000  ; Quickly pull filament out of the Y-splitter.
G90                       ; Abolute moves.

; Load in next extruder
T1 ;  Select next material.
G91                       ; Relative moves.
G1 E105 F2000     ; Quickly load next material 95%.
G1 E5 F2000         ; Slowly load last 5%.
G1 Z-2 F500
G90                       ; Abolute moves.
T1
G1 X70.804 Y74.823 F7200.000
G1 F900
G1 X71.505 Y74.264 E0.01469
G1 X72.283 Y73.751 E0.01527
G1 X73.072 Y73.326 E0.01469
G1 X73.929 Y72.960 E0.01527
G1 X74.781 Y72.683 E0.01469
G1 X75.690 Y72.475 E0.01527
G1 X76.578 Y72.355 E0.01469
G1 X77.159 Y72.309 E0.00955
G1 X107.616 Y72.304 E0.49911
G1 X108.422 Y72.355 E0.01323
G1 X109.310 Y72.475 E0.01469
G1 X110.219 Y72.683 E0.01527
G1 X111.071 Y72.960 E0.01469
G1 X111.928 Y73.326 E0.01527
G1 X112.717 Y73.751 E0.01469
G1 X113.495 Y74.264 E0.01527
G1 X114.196 Y74.823 E0.01469
G1 X114.869 Y75.467 E0.01526
G1 X115.459 Y76.142 E0.01469
G1 X116.006 Y76.895 E0.01526
G1 X116.466 Y77.665 E0.01469
G1 X116.870 Y78.504 E0.01526
G1 X117.186 Y79.344 E0.01470
G1 X117.433 Y80.242 E0.01526
G1 X117.593 Y81.124 E0.01469
G1 X117.672 Y81.819 E0.01146
G1 X117.697 Y82.500 E0.01117
G1 X117.697 Y112.500 E0.49162
G1 X117.672 Y113.181 E0.01117
G1 X117.593 Y113.876 E0.01146
G1 X117.433 Y114.758 E0.01469
G1 X117.186 Y115.656 E0.01526
G1 X116.870 Y116.496 E0.01470
G1 X116.466 Y117.335 E0.01526
G1 X116.006 Y118.105 E0.01469
G1 X115.459 Y118.858 E0.01527
G1 X114.869 Y119.533 E0.01469
G1 X114.196 Y120.177 E0.01526
G1 X113.495 Y120.736 E0.01469
G1 X112.717 Y121.249 E0.01527
G1 X111.928 Y121.674 E0.01469
G1 X111.071 Y122.040 E0.01527
G1 X110.219 Y122.317 E0.01469
G1 X109.310 Y122.525 E0.01527
G1 X108.422 Y122.645 E0.01469
G1 X107.841 Y122.691 E0.00955
G1 X107.500 Y122.697 E0.00559
G1 X77.500 Y122.697 E0.49162
G1 X76.479 Y122.640 E0.01675
G1 X75.673 Y122.522 E0.01336
G1 X74.798 Y122.322 E0.01469
G1 X73.912 Y122.034 E0.01526
G1 X73.088 Y121.682 E0.01469
G1 X72.268 Y121.240 E0.01527
G1 X71.519 Y120.746 E0.01469
G1 X70.791 Y120.166 E0.01527
G1 X70.143 Y119.546 E0.01469
G1 X69.530 Y118.844 E0.01527
G1 X69.003 Y118.119 E0.01469
G1 X68.525 Y117.319 E0.01527
G1 X68.136 Y116.512 E0.01469
G1 X67.809 Y115.639 E0.01527
G1 X67.571 Y114.775 E0.01469
G1 X67.404 Y113.859 E0.01527
G1 X67.324 Y112.966 E0.01469
G1 X67.303 Y112.500 E0.00764
G1 X67.303 Y82.500 E0.49162
G1 X67.328 Y81.818 E0.01118
G1 X67.407 Y81.124 E0.01145
G1 X67.567 Y80.242 E0.01469
G1 X67.814 Y79.344 E0.01527
G1 X68.129 Y78.504 E0.01469
G1 X68.534 Y77.665 E0.01527
G1 X68.993 Y76.895 E0.01469
G1 X69.541 Y76.142 E0.01527
G1 X70.131 Y75.467 E0.01469
G1 X70.761 Y74.864 E0.01429
G91                       ; Relative moves.
G1 X50 Y50 Z2 F1000
G1 E4 F500           ; Quicky extrude about the length of your melt zone.
G1 E-2 F1000       ; Do a quick retraction a little shorter than your melt zone. This is to avoid stringing.
G4 P2500             ; Wait 2.5 seconds so that filament can set.
G1 E-108 F 8000  ; Quickly pull filament out of the Y-splitter.
G90                       ; Abolute moves.

; Load in next extruder
T0 ;  Select next material.
G91                       ; Relative moves.
G1 E105 F2000     ; Quickly load next material 95%.
G1 E5 F2000         ; Slowly load last 5%.
G1 Z-2 F500
G90                       ; Abolute moves.
T0
G1 F5760
G1 X70.851 Y74.786 E-0.04736
G1 F5760
G1 X70.851 Y74.786 E-0.00000
G1 F5760
G1 X71.458 Y74.301 E-0.30751
G1 F5760
G1 X71.459 Y74.301 E-0.00003
G1 F5760
G1 X71.505 Y74.264 E-0.02366
G1 F5760
G1 X72.283 Y73.751 E-0.36876
G1 F5760
G1 X72.311 Y73.735 E-0.01269
G1 E-0.04000 F2400.00000
G1 X74.616 Y79.324 F7200.000
G1 E0.80000 F2400.00000
G1 F900
G1 X73.956 Y80.057 E0.01621
G1 X73.649 Y80.571 E0.00983
G1 X75.558 Y78.662 E0.04437
G1 X75.843 Y78.509 E0.00532
G1 X76.066 Y78.434 E0.00387
G1 X73.429 Y81.070 E0.06129
G1 X73.281 Y81.499 E0.00745
G1 X76.488 Y78.291 E0.07455
G1 X76.627 Y78.244 E0.00241
G1 X76.844 Y78.215 E0.00360
G1 X73.219 Y81.840 E0.08426
G1 X73.157 Y82.182 E0.00570
G1 X77.167 Y78.171 E0.09321
G1 X77.478 Y78.140 E0.00514
G1 X73.140 Y82.478 E0.10084
G1 X73.135 Y82.763 E0.00468
G1 X77.758 Y78.140 E0.10746
G1 X78.037 Y78.140 E0.00459
G1 X73.135 Y83.042 E0.11395
G1 X73.135 Y83.322 E0.00459
G1 X78.317 Y78.140 E0.12045
G1 X78.596 Y78.140 E0.00459
G1 X73.135 Y83.601 E0.12695
G1 X73.135 Y83.881 E0.00459
G1 X78.876 Y78.140 E0.13344
G1 X79.155 Y78.140 E0.00459
G1 X73.135 Y84.160 E0.13994
G1 X73.135 Y84.440 E0.00459
G1 X79.435 Y78.140 E0.14644
G1 X79.714 Y78.140 E0.00459
G1 X73.135 Y84.719 E0.15294
G1 X73.135 Y84.999 E0.00459
G1 X79.994 Y78.140 E0.15943
G1 X80.274 Y78.140 E0.00459
G1 X73.135 Y85.278 E0.16593
G1 X73.135 Y85.558 E0.00459
G1 X80.553 Y78.140 E0.17243
G1 X80.833 Y78.140 E0.00459
G1 X73.135 Y85.838 E0.17893
G1 X73.135 Y86.117 E0.00459
G1 X81.112 Y78.140 E0.18542
G1 X81.392 Y78.139 E0.00459
G1 X73.135 Y86.397 E0.19192
G1 X73.135 Y86.676 E0.00459
G1 X81.671 Y78.139 E0.19842
G1 X81.951 Y78.139 E0.00459
G1 X73.135 Y86.956 E0.20491
G1 X73.135 Y87.235 E0.00459
G1 X82.230 Y78.139 E0.21141
G1 X82.510 Y78.139 E0.00459
G1 X73.135 Y87.515 E0.21791
G1 X73.135 Y87.794 E0.00459
G1 X82.789 Y78.139 E0.22441
G1 X83.069 Y78.139 E0.00459
G1 X73.135 Y88.074 E0.23090
G1 X73.135 Y88.353 E0.00459
G1 X83.348 Y78.139 E0.23740
G1 X83.628 Y78.139 E0.00459
G1 X73.135 Y88.633 E0.24390
G1 X73.135 Y88.912 E0.00459
G1 X83.908 Y78.139 E0.25039
G1 X84.187 Y78.139 E0.00459
G1 X73.135 Y89.192 E0.25689
G1 X73.135 Y89.471 E0.00459
G1 X84.467 Y78.139 E0.26339
G1 X84.746 Y78.139 E0.00459
G1 X73.135 Y89.751 E0.26989
G1 X73.135 Y90.030 E0.00459
G1 X85.026 Y78.139 E0.27638
G1 X85.305 Y78.139 E0.00459
G1 X73.135 Y90.310 E0.28288
G1 X73.135 Y90.590 E0.00459
G1 X85.585 Y78.139 E0.28938
G1 X85.864 Y78.139 E0.00459
G1 X73.135 Y90.869 E0.29588
G1 X73.135 Y91.149 E0.00459
G1 X86.144 Y78.139 E0.30237
G1 X86.423 Y78.139 E0.00459
G1 X73.135 Y91.428 E0.30887
G1 X73.135 Y91.708 E0.00459
G1 X86.703 Y78.139 E0.31537
G1 X86.982 Y78.139 E0.00459
G1 X73.135 Y91.987 E0.32186
G1 X73.135 Y92.267 E0.00459
G1 X87.262 Y78.139 E0.32836
G1 X87.541 Y78.139 E0.00459
G1 X73.135 Y92.546 E0.33486
G1 X73.135 Y92.826 E0.00459
G1 X87.821 Y78.139 E0.34136
G1 X88.101 Y78.139 E0.00459
G1 X73.135 Y93.105 E0.34785
G1 X73.135 Y93.385 E0.00459
G1 X88.380 Y78.139 E0.35435
G1 X88.660 Y78.139 E0.00459
G1 X73.135 Y93.664 E0.36085
G1 X73.135 Y93.944 E0.00459
G1 X88.939 Y78.139 E0.36735
G1 X89.219 Y78.139 E0.00459
G1 X73.135 Y94.223 E0.37384
G1 X73.135 Y94.503 E0.00459
G1 X89.498 Y78.139 E0.38034
G1 X89.778 Y78.139 E0.00459
G1 X82.573 Y85.344 E0.16746
G1 X83.655 Y84.542 E0.02214
G1 X90.057 Y78.139 E0.14881
G1 X90.337 Y78.139 E0.00459
G1 X84.367 Y84.109 E0.13877
G1 X85.053 Y83.703 E0.01311
G1 X90.616 Y78.139 E0.12931
G1 X90.896 Y78.139 E0.00459
G1 X85.583 Y83.452 E0.12348
G1 X86.114 Y83.201 E0.00964
G1 X91.175 Y78.139 E0.11765
G1 X91.455 Y78.139 E0.00459
G1 X86.602 Y82.992 E0.11279
G1 X87.037 Y82.836 E0.00760
G1 X91.735 Y78.139 E0.10917
G1 X92.014 Y78.139 E0.00459
G1 X87.473 Y82.681 E0.10555
G1 X87.901 Y82.531 E0.00746
G1 X92.294 Y78.139 E0.10209
G1 X92.573 Y78.139 E0.00459
G1 X88.274 Y82.438 E0.09991
G1 X88.647 Y82.344 E0.00632
G1 X92.853 Y78.139 E0.09774
G1 X93.132 Y78.139 E0.00459
G1 X89.020 Y82.251 E0.09557
G1 X89.389 Y82.162 E0.00623
G1 X93.412 Y78.139 E0.09350
G1 X93.691 Y78.139 E0.00459
G1 X89.717 Y82.113 E0.09237
G1 X90.046 Y82.064 E0.00545
G1 X93.971 Y78.139 E0.09124
G1 X94.250 Y78.139 E0.00459
G1 X90.374 Y82.016 E0.09010
G1 X90.702 Y81.967 E0.00545
G1 X94.530 Y78.139 E0.08897
G1 X94.809 Y78.139 E0.00459
G1 X91.015 Y81.934 E0.08820
G1 X91.309 Y81.919 E0.00484
G1 X95.089 Y78.139 E0.08786
G1 X95.369 Y78.139 E0.00459
G1 X91.603 Y81.905 E0.08753
G1 X91.897 Y81.890 E0.00484
G1 X95.648 Y78.139 E0.08719
G1 X95.928 Y78.139 E0.00459
G1 X92.191 Y81.876 E0.08686
G1 X92.479 Y81.867 E0.00474
G1 X96.207 Y78.139 E0.08665
G1 X96.487 Y78.139 E0.00459
G1 X92.745 Y81.880 E0.08696
G1 X93.012 Y81.893 E0.00438
G1 X96.766 Y78.139 E0.08726
G1 X97.046 Y78.139 E0.00459
G1 X93.278 Y81.907 E0.08757
G1 X93.545 Y81.920 E0.00438
G1 X97.325 Y78.139 E0.08787
G1 X97.605 Y78.139 E0.00459
G1 X93.811 Y81.933 E0.08818
G1 X94.068 Y81.956 E0.00423
G1 X97.884 Y78.139 E0.08871
G1 X98.164 Y78.139 E0.00459
G1 X94.311 Y81.992 E0.08955
G1 X94.555 Y82.028 E0.00404
G1 X98.443 Y78.139 E0.09039
G1 X98.723 Y78.139 E0.00459
G1 X94.798 Y82.064 E0.09123
G1 X95.041 Y82.100 E0.00404
G1 X99.002 Y78.139 E0.09207
G1 X99.282 Y78.139 E0.00459
G1 X95.285 Y82.136 E0.09291
G1 X95.525 Y82.176 E0.00400
G1 X99.562 Y78.139 E0.09382
G1 X99.841 Y78.139 E0.00459
G1 X95.749 Y82.232 E0.09512
G1 X95.972 Y82.288 E0.00379
G1 X100.121 Y78.139 E0.09642
G1 X100.400 Y78.139 E0.00459
G1 X96.196 Y82.344 E0.09773
G1 X96.419 Y82.400 E0.00379
G1 X100.680 Y78.139 E0.09903
G1 X100.959 Y78.139 E0.00459
G1 X96.643 Y82.456 E0.10033
G1 X96.866 Y82.512 E0.00379
G1 X101.239 Y78.139 E0.10163
G1 X101.518 Y78.139 E0.00459
G1 X97.081 Y82.576 E0.10313
G1 X97.287 Y82.650 E0.00359
G1 X101.798 Y78.139 E0.10484
G1 X102.077 Y78.139 E0.00459
G1 X97.493 Y82.723 E0.10655
G1 X97.699 Y82.797 E0.00359
G1 X102.357 Y78.139 E0.10826
G1 X102.636 Y78.139 E0.00459
G1 X97.905 Y82.871 E0.10998
G1 X98.111 Y82.944 E0.00359
G1 X102.916 Y78.139 E0.11169
G1 X103.196 Y78.139 E0.00459
G1 X98.317 Y83.018 E0.11340
G1 X98.516 Y83.098 E0.00353
G1 X103.475 Y78.139 E0.11527
G1 X103.755 Y78.139 E0.00459
G1 X98.706 Y83.188 E0.11736
