; generated by Slic3r 1.3.0-dev on 2017-05-22 at 20:21:40

; external perimeters extrusion width = 0.40mm (0.00mm^3/s)
; perimeters extrusion width = 0.67mm (6.28mm^3/s)
; infill extrusion width = 0.67mm (8.80mm^3/s)
; solid infill extrusion width = 0.67mm (3.77mm^3/s)
; top infill extrusion width = 0.67mm (2.51mm^3/s)
; support material extrusion width = 0.40mm (4.28mm^3/s)

; external perimeters extrusion width = 0.40mm (0.00mm^3/s)
; perimeters extrusion width = 0.67mm (6.28mm^3/s)
; infill extrusion width = 0.67mm (8.80mm^3/s)
; solid infill extrusion width = 0.67mm (3.77mm^3/s)
; top infill extrusion width = 0.67mm (2.51mm^3/s)
; support material extrusion width = 0.40mm (4.28mm^3/s)

M107
M190 S60 ; set bed temperature and wait for it to be reached
M104 S275 T0 ; set temperature
M104 S275 T1 ; set temperature
M80 ; psu on
G28 ; home all axes
G1 Z5 F5000 ; lift nozzle
G0 F1980 X30; move nozzle over bed
; Filament gcode

; Filament gcode

M109 S275 T0 ; set temperature and wait for it to be reached
M109 S275 T1 ; set temperature and wait for it to be reached
G21 ; set units to millimeters
G90 ; use absolute coordinates
M83 ; use relative distances for extrusion
T0
G1 E-0.80000 F2400.00000
G1 Z0.200 F7200.000
G1 X70.559 Y74.515 F7200.000
G1 E0.80000 F2400.00000
G1 F900
G1 X71.260 Y73.956 E0.01469
G1 X72.096 Y73.404 E0.01642
G1 X72.885 Y72.979 E0.01469
G1 X73.807 Y72.585 E0.01643
G1 X74.660 Y72.308 E0.01469
G1 X75.637 Y72.085 E0.01643
G1 X76.525 Y71.964 E0.01469
G1 X77.150 Y71.915 E0.01027
G1 X107.625 Y71.910 E0.49940
G1 X108.475 Y71.964 E0.01395
G1 X109.363 Y72.085 E0.01469
G1 X110.340 Y72.308 E0.01643
G1 X111.193 Y72.585 E0.01469
G1 X112.115 Y72.979 E0.01643
G1 X112.904 Y73.404 E0.01469
G1 X113.740 Y73.956 E0.01642
G1 X114.442 Y74.515 E0.01469
G1 X115.166 Y75.207 E0.01642
G1 X115.756 Y75.883 E0.01469
G1 X116.345 Y76.693 E0.01642
G1 X116.805 Y77.463 E0.01469
G1 X117.239 Y78.366 E0.01642
G1 X117.555 Y79.205 E0.01470
G1 X117.821 Y80.171 E0.01642
G1 X117.981 Y81.053 E0.01469
G1 X118.065 Y81.801 E0.01233
G1 X118.091 Y82.500 E0.01146
G1 X118.091 Y112.500 E0.49162
G1 X118.065 Y113.199 E0.01146
G1 X117.981 Y113.947 E0.01233
G1 X117.821 Y114.829 E0.01469
G1 X117.555 Y115.795 E0.01642
G1 X117.239 Y116.634 E0.01470
G1 X116.805 Y117.537 E0.01642
G1 X116.345 Y118.307 E0.01469
G1 X115.756 Y119.118 E0.01642
G1 X115.166 Y119.793 E0.01469
G1 X114.442 Y120.485 E0.01642
G1 X113.741 Y121.044 E0.01469
G1 X112.904 Y121.596 E0.01642
G1 X112.115 Y122.021 E0.01469
G1 X111.193 Y122.415 E0.01642
G1 X110.340 Y122.692 E0.01469
G1 X109.363 Y122.915 E0.01643
G1 X108.475 Y123.036 E0.01469
G1 X107.850 Y123.085 E0.01028
G1 X107.500 Y123.091 E0.00573
G1 X77.500 Y123.091 E0.49162
G1 X76.453 Y123.033 E0.01719
G1 X75.585 Y122.906 E0.01438
G1 X74.711 Y122.706 E0.01470
G1 X73.757 Y122.397 E0.01642
G1 X72.933 Y122.044 E0.01469
G1 X72.050 Y121.569 E0.01642
G1 X71.302 Y121.075 E0.01469
G1 X70.519 Y120.451 E0.01642
G1 X69.871 Y119.831 E0.01469
G1 X69.211 Y119.076 E0.01643
G1 X68.684 Y118.351 E0.01469
G1 X68.170 Y117.490 E0.01643
G1 X67.781 Y116.683 E0.01469
G1 X67.429 Y115.744 E0.01643
G1 X67.191 Y114.880 E0.01469
G1 X67.012 Y113.894 E0.01642
G1 X66.931 Y113.001 E0.01469
G1 X66.909 Y112.500 E0.00822
G1 X66.909 Y82.500 E0.49162
G1 X66.935 Y81.801 E0.01147
G1 X67.019 Y81.054 E0.01232
G1 X67.179 Y80.171 E0.01469
G1 X67.445 Y79.205 E0.01643
G1 X67.760 Y78.366 E0.01469
G1 X68.195 Y77.463 E0.01643
G1 X68.655 Y76.693 E0.01469
G1 X69.244 Y75.882 E0.01643
G1 X69.834 Y75.207 E0.01469
G1 X70.515 Y74.556 E0.01544
G1 X70.681 Y74.669 F7200.000
G1 F900
G1 X70.638 Y74.710 E0.01486
;toolchange
T1
G1 X70.804 Y74.823 F7200.000
G1 F900
G1 X71.505 Y74.264 E0.01469
G1 X72.283 Y73.751 E0.01527
G1 X73.072 Y73.326 E0.01469
G
G1 X67.407 Y81.124 E0.01145
G1 X67.567 Y80.242 E0.01469
G1 X67.814 Y79.344 E0.01527
G1 X68.129 Y78.504 E0.01469
G1 X68.534 Y77.665 E0.01527
G1 X68.993 Y76.895 E0.01469
G1 X69.541 Y76.142 E0.01527
G1 X70.131 Y75.467 E0.01469
G1 X70.761 Y74.864 E0.01429
;toolchange
T0
G1 F5760
G1 X70.851 Y74.786 E-0.04736
G1 F5760
G1 X70.851 Y74.786 E-0.00000
G1 F5760
G1 X71.458 Y74.301 E-0.30751
G1 F5760
G1 X71.459 Y74.301 E-0.00003
G1 F5760
G1 X71.505 Y74.264 E-0.02366
G1 F5760
G1 X72.283 Y73.751 E-0.36876
G1 F5760
G1 X72.311 Y73.735 E-0.01269
G1 E-0.04000 F2400.00000
G1 X74.616 Y79.324 F7200.000
G1 E0.80000 F2400.00000
G1 F900
G1 X73.956 Y80.057 E0.01621
G1 X73.649 Y80.571 E0.00983
G1 X75.558 Y78.662 E0.04437

G1 X111.865 Y99.099 E0.00459
G1 X106.548 Y104.416 E0.12358
G1 X106.298 Y104.947 E0.00964
G1 X111.865 Y99.379 E0.12941
G1 X111.865 Y99.658 E0.00459
G1 X105.891 Y105.633 E0.13887
G1 X105.459 Y106.344 E0.01368
G1 X111.865 Y99.938 E0.14890
G1 X111.865 Y100.217 E0.00459
G1 X104.657 Y107.426 E0.16755
G1 F5760
G1 X106.014 Y106.068 E-0.76000
G1 E-0.04000 F2400.00000
G1 X110.387 Y115.672 F7200.000
G1 E0.80000 F2400.00000
G1 F900
G1 X111.044 Y114.943 E0.01613
G1 X111.351 Y114.428 E0.00984
G1 X109.442 Y116.338 E0.04439
G1 X109.108 Y116.518 E0.00623
G1 X108.922 Y116.578 E0.00321
G1 X111.571 Y113.929 E0.06157
G1 X111.719 Y113.501 E0.00745
G1 X108.508 Y116.713 E0.07464
G1 X108.377 Y116.755 E0.00226
G1 X108.156 Y116.785 E0.00367
G1 X111.781 Y113.160 E0.08427
G1 X111.843 Y112.818 E0.00570
G1 X107.833 Y116.829 E0.09322
G1 X107.522 Y116.860 E0.00514
G1 X111.860 Y112.522 E0.10085
G1 X111.865 Y112.237 E0.00468
G1 X107.242 Y116.860 E0.10746
G1 X106.962 Y116.861 E0.00459
G1 X111.865 Y111.957 E0.11396
G1 X111.865 Y111.678 E0.00459
G1 X106.683 Y116.861 E0.12046
G1 X106.403 Y116.861 E0.00459
G1 X111.865 Y111.398 E0.12696
G1 X111.865 Y111.119 E0.00459
G1 X106.124 Y116.861 E0.13346
G1 X105.844 Y116.861 E0.00459
G1 X111.865 Y110.839 E0.13995
G1 X111.865 Y110.560 E0.00459
G1 X105.565 Y116.861 E0.14645
G1 X105.285 Y116.861 E0.00459

G1 X73.135 Y97.019 E0.00459
G1 X77.681 Y92.473 E0.10566
G1 X77.836 Y92.038 E0.00760
G1 X73.135 Y96.739 E0.10928
G1 X73.135 Y96.460 E0.00459
G1 X77.992 Y91.602 E0.11290
G1 X78.201 Y91.114 E0.00873
G1 X73.135 Y96.180 E0.11776
G1 X73.135 Y95.901 E0.00459
G1 X78.452 Y90.583 E0.12359
G1 X78.703 Y90.053 E0.00964
G1 X73.135 Y95.621 E0.12942
G1 X73.135 Y95.342 E0.00459
G1 X79.109 Y89.367 E0.13887
G1 X79.542 Y88.655 E0.01368
G1 X73.135 Y95.062 E0.14892
G1 X73.135 Y94.782 E0.00459
G1 X80.344 Y87.573 E0.16757
G1 F5760
G1 X78.986 Y88.931 E-0.76000
G1 E-0.04000 F2400.00000
G1 X80.507 Y88.125 F7200.000
G1 X80.507 Y88.125 F7200.000
G1 X79.224 Y88.237 F7200.000
G1 X78.684 Y88.260 F7200.000
G1 X77.001 Y87.134 F7200.000
G1 X75.948 Y89.390 F7200.000
G1 X75.715 Y90.430 F7200.000
G1 X75.672 Y90.645 F7200.000
G1 X75.475 Y91.779 F7200.000
G1 X75.399 Y92.215 F7200.000
G1 X75.372 Y92.400 F7200.000
G1 X75.283 Y93.118 F7200.000
G1 X75.178 Y93.971 F7200.000
G1 X75.162 Y94.134 F7200.000
G1 X75.132 Y94.548 F7200.000
G1 X75.131 Y94.551 F7200.000
G1 X75.108 Y94.872 F7200.000
G1 X75.073 Y95.349 F7200.000
G1 X75.072 Y95.353 F7200.000
G1 X75.046 Y95.705 F7200.000
G1 X75.039 Y95.856 F7200.000
G1 X75.029 Y96.238 F7200.000
G1 X75.029 Y96.244 F7200.000
G1 X75.016 Y96.807 F7200.000
G1 X75.009 Y97.061 F7200.000
G1 X75.009 Y97.064 F7200.000
G1 X75.000 Y97.426 F7200.000
G1 X75.000 Y97.574 F7200.000
G1 X75.009 Y97.935 F7200.000
G1 X75.009 Y97.939 F7200.000
G1 X75.017 Y98.272 F7200.000
G1 X75.029 Y98.756 F7200.000
G1 X75.029 Y98.761 F7200.000
G1 X75.039 Y99.144 F7200.000
G1 X75.046 Y99.295 F7200.000
G1 X75.072 Y99.647 F7200.000
G1 X75.073 Y99.651 F7200.000
G1 X75.162 Y100.866 F7200.000
G1 X75.178 Y101.029 F7200.000
G1 X75.314 Y102.130 F7200.000
G1 X75.372 Y102.600 F7200.000
G1 X75.399 Y102.785 F7200.000
G1 X75.473 Y103.208 F7200.000
G1 X75.473 Y103.210 F7200.000
G1 X75.512 Y103.431 F7200.000
G1 X75.587 Y103.865 F7200.000
G1 X75.588 Y103.869 F7200.000
G1 X75.672 Y104.355 F7200.000
G1 X75.715 Y104.570 F7200.000
G1 X75.948 Y105.610 F7200.000
G1 X77.001 Y107.866 F7200.000
G1 X77.519 Y110.753 F7200.000
G1 X77.915 Y111.779 F7200.000
G1 X78.002 Y111.998 F7200.000
G1 X78.221 Y112.085 F7200.000
G1 X79.361 Y112.525 F7200.000
G1 X79.367 Y112.528 F7200.000
G1 X79.791 Y112.691 F7200.000
G1 X80.158 Y112.823 F7200.000
G1 X81.153 Y113.151 F7200.000
G1 X81.729 Y113.341 F7200.000
G1 X82.034 Y113.434 F7200.000
G1 X82.982 Y113.697 F7200.000
G1 X83.604 Y113.869 F7200.000
G1 X83.859 Y113.933 F7200.000
G1 X84.180 Y114.005 F7200.000
G1 X84.182 Y114.005 F7200.000
G1 X84.460 Y114.067 F7200.000
G1 X85.186 Y114.231 F7200.000
G1 X85.190 Y114.231 F7200.000
G1 X85.430 Y114.285 F7200.000
G1 X85.645 Y114.328 F7200.000
G1 X86.456 Y114.469 F7200.000
G1 X87.215 Y114.601 F7200.000
G1 X87.400 Y114.628 F7200.000
G1 X88.687 Y114.787 F7200.000
G1 X88.693 Y114.787 F7200.000
G1 X88.971 Y114.822 F7200.000
G1 X89.134 Y114.838 F7200.000
G1 X90.388 Y114.930 F7200.000
G1 X90.391 Y114.931 F7200.000
G1 X90.705 Y114.954 F7200.000
G1 X90.856 Y114.961 F7200.000
G1 X91.375 Y114.974 F7200.000
G1 X92.083 Y114.991 F7200.000
G1 X92.083 Y114.991 F7200.000
G1 X92.426 Y115.000 F7200.000
G1 X92.574 Y115.000 F7200.000
G1 X92.613 Y114.999 F7200.000
G1 X92.617 Y114.999 F7200.000
G1 X93.000 Y114.989 F7200.000
G1 X93.747 Y114.971 F7200.000
G1 X93.753 Y114.971 F7200.000
G1 X94.081 Y114.963 F7200.000
G1 X94.286 Y114.954 F7200.000
G1 X95.686 Y114.851 F7200.000
G1 X95.978 Y114.828 F7200.000
G1 X97.600 Y114.628 F7200.000
G1 X97.785 Y114.601 F7200.000
G1 X99.036 Y114.384 F7200.000
G1 X99.355 Y114.328 F7200.000
G1 X99.359 Y114.327 F7200.000
G1 X99.581 Y114.289 F7200.000
G1 X100.116 Y114.163 F7200.000
G1 X101.359 Y113.884 F7200.000
G1 X101.958 Y113.713 F7200.000
G1 X102.419 Y113.586 F7200.000
G1 X102.966 Y113.434 F7200.000
G1 X102.972 Y113.432 F7200.000
G1 X103.132 Y113.388 F7200.000
G1 X103.765 Y113.178 F7200.000
G1 X104.697 Y112.871 F7200.000
G1 X104.842 Y112.823 F7200.000
G1 X104.843 Y112.822 F7200.000
G1 X104.952 Y112.786 F7200.000
G1 X105.611 Y112.536 F7200.000
G1 X106.779 Y112.085 F7200.000
G1 X103.815 Y108.815 F7200.000
G1 X103.814 Y108.814 F7200.000
G1 X103.628 Y108.610 F7200.000
G1 X103.471 Y108.471 F7200.000
G1 E0.80000 F2400.00000
G1 F900
G1 X102.342 Y109.493 E0.02495
G1 X101.120 Y110.400 E0.02495
G1 X99.814 Y111.183 E0.02495
G1 X98.437 Y111.834 E0.02495
G1 X97.004 Y112.347 E0.02495
G1 X95.527 Y112.717 E0.02495
G1 X94.021 Y112.940 E0.02495
G1 X92.500 Y113.015 E0.02495
G1 X90.979 Y112.940 E0.02495
G1 X89.473 Y112.717 E0.02495
G1 X87.996 Y112.347 E0.02495
G1 X86.563 Y111.834 E0.02495
G1 X85.186 Y111.183 E0.02495
G1 X83.880 Y110.400 E0.02495
G1 X82.658 Y109.493 E0.02495
G1 X81.529 Y108.471 E0.02495
G1 X80.507 Y107.342 E0.02495
G1 X79.600 Y106.120 E0.02495
G1 X78.817 Y104.814 E0.02495
G1 X78.166 Y103.437 E0.02495
G1 X77.653 Y102.004 E0.02495
G1 X77.283 Y100.527 E0.02495
G1 X77.060 Y99.021 E0.02495
G1 X76.985 Y97.500 E0.02495
G1 X77.060 Y95.979 E0.02495
G1 X77.283 Y94.473 E0.02495
G1 X77.653 Y92.996 E0.02495
G1 X78.166 Y91.563 E0.02495
G1 X78.817 Y90.186 E0.02495
G1 X79.600 Y88.880 E0.02495
G1 X80.507 Y87.658 E0.02495
G1 X81.529 Y86.529 E0.02495
G1 X82.658 Y85.507 E0.02495
G1 X83.880 Y84.600 E0.02495
G1 X85.186 Y83.817 E0.02495
G1 X86.563 Y83.166 E0.02495
G1 X87.996 Y82.653 E0.02495
G1 X89.473 Y82.283 E0.02495
G1 X90.979 Y82.060 E0.02495
G1 X92.500 Y81.985 E0.02495
G1 X94.021 Y82.060 E0.02495
G1 X95.527 Y82.283 E0.02495
G1 X97.004 Y82.653 E0.02495
G1 X98.437 Y83.166 E0.02495
G1 X99.814 Y83.817 E0.02495
G1 X101.120 Y84.600 E0.02495
G1 X102.342 Y85.507 E0.02495
G1 X103.471 Y86.529 E0.02495
G1 X104.493 Y87.658 E0.02495
G1 X105.400 Y88.880 E0.02495
G1 X106.183 Y90.186 E0.02495
G1 X106.834 Y91.563 E0.02495
G1 X107.347 Y92.996 E0.02495
G1 X107.717 Y94.473 E0.02495
G1 X107.940 Y95.979 E0.02495
G1 X108.015 Y97.500 E0.02495
G1 X107.940 Y99.021 E0.02495
G1 X107.717 Y100.527 E0.02495
G1 X107.347 Y102.004 E0.02495
G1 X106.834 Y103.437 E0.02495
G1 X106.183 Y104.814 E0.02495
G1 X105.400 Y106.120 E0.02495
G1 X104.493 Y107.342 E0.02495
G1 X103.511 Y108.426 E0.02397
G1 X103.331 Y108.331 F7200.000
G1 F900
G1 X102.217 Y109.341 E0.02463
G1 X101.010 Y110.236 E0.02463
G1 X99.721 Y111.009 E0.02463
G1 X98.362 Y111.651 E0.02463
G1 X96.946 Y112.158 E0.02463
G1 X95.488 Y112.523 E0.02463
G1 X94.001 Y112.744 E0.02463
G1 X92.500 Y112.817 E0.02463
G1 X90.999 Y112.744 E0.02463
G1 X89.512 Y112.523 E0.02463
G1 X88.054 Y112.158 E0.02463
G1 X86.638 Y111.651 E0.02463
G1 X85.279 Y111.009 E0.02463
G1 X83.990 Y110.236 E0.02463
G1 X82.783 Y109.341 E0.02463
G1 X81.669 Y108.331 E0.02463
G1 X80.659 Y107.217 E0.02463
G1 X79.764 Y106.010 E0.02463
G1 X78.991 Y104.721 E0.02463
G1 X78.349 Y103.362 E0.02463
G1 X77.842 Y101.946 E0.02463
G1 X77.477 Y100.488 E0.02463
G1 X77.256 Y99.001 E0.02463
G1 X77.183 Y97.500 E0.02463
G1 X77.256 Y95.999 E0.02463
G1 X77.477 Y94.512 E0.02463
G1 X77.842 Y93.054 E0.02463
G1 X78.349 Y91.638 E0.02463
G1 X78.991 Y90.279 E0.02463
G1 X79.764 Y88.990 E0.02463
G1 X80.659 Y87.783 E0.02463
G1 X81.669 Y86.669 E0.02463
G1 X82.783 Y85.659 E0.02463
G1 X83.990 Y84.764 E0.02463
G1 X85.279 Y83.991 E0.02463
G1 X86.638 Y83.349 E0.02463
G1 X88.054 Y82.842 E0.02463
G1 X89.512 Y82.477 E0.02463
G1 X90.999 Y82.256 E0.02463
G1 X92.500 Y82.183 E0.02463
G1 X94.001 Y82.256 E0.02463
G1 X95.488 Y82.477 E0.02463
G1 X96.946 Y82.842 E0.02463
G1 X98.362 Y83.349 E0.02463
G1 X99.721 Y83.991 E0.02463
G1 X101.010 Y84.764 E0.02463
G1 X102.217 Y85.659 E0.02463
G1 X103.331 Y86.669 E0.02463
G1 X104.341 Y87.783 E0.02463
G1 X105.236 Y88.990 E0.02463
G1 X106.009 Y90.279 E0.02463
G1 X106.651 Y91.638 E0.02463
G1 X107.158 Y93.054 E0.02463
G1 X107.523 Y94.512 E0.02463
G1 X107.744 Y95.999 E0.02463
G1 X107.817 Y97.500 E0.02463
G1 X107.744 Y99.001 E0.02463
G1 X107.523 Y100.488 E0.02463
G1 X107.158 Y101.946 E0.02463
G1 X106.651 Y103.362 E0.02463
G1 X106.009 Y104.721 E0.02463
G1 X105.236 Y106.010 E0.02463
G1 X104.341 Y107.217 E0.02463
G1 X103.371 Y108.287 E0.02365
G1 X103.192 Y108.192 F7200.000
G1 F900
G1 X102.092 Y109.188 E0.02432
G1 X100.900 Y110.072 E0.02432
G1 X99.628 Y110.835 E0.02432
G1 X98.286 Y111.469 E0.02432
G1 X96.889 Y111.969 E0.02432
G1 X95.450 Y112.330 E0.02432
G1 X93.982 Y112.547 E0.02432
G1 X92.500 Y112.620 E0.02432
G1 X91.018 Y112.547 E0.02432
G1 X89.550 Y112.330 E0.02432
G1 X88.111 Y111.969 E0.02432
G1 X86.714 Y111.469 E0.02432
G1 X85.372 Y110.835 E0.02432
G1 X84.100 Y110.072 E0.02432
G1 X82.908 Y109.188 E0.02432
G1 X81.808 Y108.192 E0.02432
G1 X80.812 Y107.092 E0.02432
G1 X79.928 Y105.900 E0.02432
G1 X79.165 Y104.628 E0.02432
G1 X78.531 Y103.286 E0.02432
G1 X78.031 Y101.889 E0.02432
G1 X77.670 Y100.450 E0.02432
G1 X77.453 Y98.982 E0.02432
G1 X77.380 Y97.500 E0.02432
G1 X77.453 Y96.018 E0.02432
G1 X77.670 Y94.550 E0.02432
G1 X78.031 Y93.111 E0.02432
G1 X78.531 Y91.714 E0.02432
G1 X79.165 Y90.372 E0.02432
G1 X79.928 Y89.100 E0.02432
G1 X80.812 Y87.908 E0.02432
G1 X81.808 Y86.808 E0.02432
G1 X82.908 Y85.812 E0.02432
G1 X84.100 Y84.928 E0.02432
G1 X85.372 Y84.165 E0.02432
G1 X86.714 Y83.531 E0.02432
G1 X88.111 Y83.031 E0.02432
G1 X89.550 Y82.670 E0.02432
G1 X91.018 Y82.453 E0.02432
G1 X92.500 Y82.380 E0.02432
G1 X93.982 Y82.453 E0.02432
G1 X95.450 Y82.670 E0.02432
G1 X96.889 Y83.031 E0.02432
G1 X98.286 Y83.531 E0.02432
G1 X99.628 Y84.165 E0.02432
G1 X100.900 Y84.928 E0.02432
G1 X102.092 Y85.812 E0.02432
G1 X103.192 Y86.808 E0.02432
G1 X104.188 Y87.908 E0.02432
G1 X105.072 Y89.100 E0.02432
G1 X105.835 Y90.372 E0.02432
G1 X106.469 Y91.714 E0.02432
G1 X106.969 Y93.111 E0.02432
G1 X107.330 Y94.550 E0.02432
G1 X107.547 Y96.018 E0.02432
G1 X107.620 Y97.500 E0.02432
G1 X107.547 Y98.982 E0.02432
G1 X107.330 Y100.450 E0.02432
G1 X106.969 Y101.889 E0.02432
G1 X106.469 Y103.286 E0.02432
