;FLAVOR:RepRap
;TIME:968
;Filament used: 0.481925m
;Layer height: 0.2
;Generated with Cura_SteamEngine 2.6.0-BETA
M190 S65
M104 S270
M104 T1 S260
M109 S270
M109 T1 S260
;START
G28 ;Home
G1 Z15.0 F6000 ;Move the platform down 15mm
G92 E0
G1 F200 E3
G92 E0
;LAYER_COUNT:25
;LAYER:0
M107
G0 F3600 X56.394 Y85.218 Z0.3
;TYPE:SKIRT
G1 F1800 X57.249 Y84.679 E0.05042
G1 X62.818 Y81.792 E0.36338
G1 X67.366 Y79.075 E0.62769
G1 X71.803 Y76.071 E0.89501
G1 X75.584 Y73.219 E1.13129
G1 X76.16 Y72.835 E1.16583
G1 X76.776 Y72.519 E1.20037
G1 X77.425 Y72.277 E1.23492
G1 X78.097 Y72.111 E1.26946
G1 X78.784 Y72.023 E1.30401
G1 X79.18 Y72.009 E1.32378
G1 X99.163 Y71.954 E2.32074
G1 X99.855 Y71.992 E2.35532
G1 X100.537 Y72.11 E2.38985
G1 X101.202 Y72.305 E2.42442
G1 X101.839 Y72.576 E2.45896
G1 X102.441 Y72.918 E2.4935
G1 X103 Y73.327 E2.52806
G1 X103.431 Y73.719 E2.55712
G1 X117.566 Y87.907 E3.5563
G1 X118.025 Y88.425 E3.59082
G1 X118.422 Y88.993 E3.6254
G1 X118.751 Y89.602 E3.65993
G1 X119.007 Y90.246 E3.69451
G1 X119.188 Y90.914 E3.72903
G1 X119.29 Y91.599 E3.76359
G1 X119.313 Y92.291 E3.79813
G1 X119.256 Y92.981 E3.83267
G1 X119.12 Y93.66 E3.86722
G1 X118.906 Y94.319 E3.90179
G1 X118.618 Y94.949 E3.93635
G1 X118.259 Y95.541 E3.97089
G1 X117.835 Y96.088 E4.00542
G1 X117.558 Y96.385 E4.02568
G1 X103.427 Y110.516 E5.0227
G1 X102.91 Y110.976 E5.05722
G1 X102.343 Y111.374 E5.09178
G1 X101.734 Y111.704 E5.12634
G1 X101.091 Y111.962 E5.1609
G1 X100.423 Y112.144 E5.19545
G1 X99.738 Y112.247 E5.23
G1 X99.046 Y112.271 E5.26455
G1 X98.356 Y112.216 E5.29908
G1 X97.676 Y112.081 E5.33367
G1 X97.163 Y111.922 E5.36047
G1 X95.003 Y111.149 E5.47492
G1 X89.856 Y109.537 E5.74401
G1 X84.641 Y108.222 E6.01233
G1 X82.143 Y107.706 E6.13958
G1 X76.87 Y106.843 E6.40615
G1 X71.571 Y106.283 E6.67199
G1 X66.22 Y106.02 E6.93928
G1 X59.979 Y105.989 E7.25065
G1 X59.288 Y105.945 E7.28519
G1 X58.606 Y105.823 E7.31976
G1 X57.943 Y105.622 E7.35432
G1 X57.308 Y105.347 E7.38884
G1 X56.709 Y105 E7.42338
G1 X56.153 Y104.586 E7.45797
G1 X55.649 Y104.111 E7.49252
G1 X55.203 Y103.581 E7.52708
G1 X54.821 Y103.004 E7.5616
G1 X54.508 Y102.386 E7.59616
G1 X54.269 Y101.736 E7.63071
G1 X54.106 Y101.063 E7.66526
G1 X54.021 Y100.375 E7.69984
G1 X54.009 Y99.988 E7.71916
G1 X54.01 Y90.005 E8.21721
G1 X54.05 Y89.314 E8.25175
G1 X54.169 Y88.632 E8.28629
G1 X54.367 Y87.968 E8.32085
G1 X54.639 Y87.331 E8.35541
G1 X54.983 Y86.73 E8.38996
G1 X55.394 Y86.173 E8.42449
G1 X55.867 Y85.666 E8.45909
G1 X56.394 Y85.218 E8.49359
G0 F3600 X56.782 Y85.43
G1 F1800 X57.433 Y85.034 E8.53161
G1 X63.022 Y82.137 E8.84568
G1 X67.59 Y79.408 E9.11115
G1 X72.016 Y76.411 E9.37782
G1 X75.825 Y73.538 E9.61585
G1 X76.382 Y73.168 E9.64921
G1 X76.979 Y72.867 E9.68257
G1 X77.608 Y72.639 E9.71595
G1 X78.26 Y72.488 E9.74934
G1 X79.182 Y72.409 E9.7955
G1 X99.165 Y72.354 E10.79246
G1 X99.833 Y72.392 E10.82584
G1 X100.491 Y72.51 E10.8592
G1 X101.131 Y72.705 E10.89257
G1 X101.743 Y72.975 E10.92595
G1 X102.319 Y73.316 E10.95934
G1 X102.849 Y73.724 E10.99271
G1 X103.147 Y74.002 E11.01304
G1 X117.282 Y88.19 E12.01222
G1 X117.725 Y88.691 E12.04558
G1 X118.105 Y89.242 E12.07897
G1 X118.417 Y89.833 E12.11231
G1 X118.656 Y90.458 E12.1457
G1 X118.819 Y91.107 E12.17908
G1 X118.903 Y91.771 E12.21247
G1 X118.907 Y92.44 E12.24585
G1 X118.832 Y93.105 E12.27924
G1 X118.677 Y93.756 E12.31262
G1 X118.447 Y94.384 E12.34599
G1 X118.143 Y94.98 E12.37937
G1 X117.77 Y95.535 E12.41273
G1 X117.275 Y96.102 E12.45028
G1 X103.144 Y110.233 E13.4473
G1 X102.643 Y110.677 E13.4807
G1 X102.093 Y111.058 E13.51408
G1 X101.502 Y111.371 E13.54744
G1 X100.878 Y111.611 E13.5808
G1 X100.229 Y111.775 E13.6142
G1 X99.565 Y111.86 E13.64759
G1 X98.896 Y111.866 E13.68097
G1 X98.231 Y111.791 E13.71436
G1 X97.298 Y111.546 E13.76248
G1 X95.109 Y110.763 E13.87847
G1 X89.973 Y109.154 E14.14699
G1 X84.723 Y107.83 E14.41711
G1 X82.242 Y107.317 E14.54351
G1 X76.905 Y106.445 E14.8133
G1 X71.597 Y105.883 E15.0796
G1 X66.242 Y105.62 E15.34708
G1 X59.981 Y105.589 E15.65945
G1 X59.313 Y105.546 E15.69284
G1 X58.656 Y105.423 E15.72619
G1 X58.017 Y105.223 E15.7596
G1 X57.407 Y104.948 E15.79298
G1 X56.834 Y104.602 E15.82637
G1 X56.307 Y104.191 E15.85972
G1 X55.832 Y103.719 E15.89312
G1 X55.417 Y103.195 E15.92647
G1 X55.068 Y102.624 E15.95986
G1 X54.789 Y102.016 E15.99323
G1 X54.584 Y101.379 E16.02662
G1 X54.457 Y100.722 E16.06
G1 X54.409 Y99.988 E16.0967
G1 X54.41 Y90.005 E16.59475
G1 X54.45 Y89.338 E16.62809
G1 X54.569 Y88.679 E16.6615
G1 X54.766 Y88.04 E16.69486
G1 X55.038 Y87.429 E16.72823
G1 X55.381 Y86.854 E16.76163
G1 X55.79 Y86.325 E16.79499
G1 X56.259 Y85.848 E16.82837
G1 X56.782 Y85.43 E16.86177
G0 F3600 X57.617 Y85.389
G1 F1800 X63.213 Y82.488 E17.17624
G1 X67.806 Y79.744 E17.44316
G1 X72.254 Y76.733 E17.71114
G1 X76.065 Y73.858 E17.94931
G1 X76.603 Y73.502 E17.98149
G1 X77.181 Y73.216 E18.01366
G1 X77.789 Y73.003 E18.04581
G1 X78.42 Y72.867 E18.07801
G1 X79.183 Y72.809 E18.11618
G1 X99.166 Y72.754 E19.11314
G1 X99.809 Y72.792 E19.14528
G1 X100.443 Y72.91 E19.17745
G1 X101.058 Y73.105 E19.20964
G1 X101.643 Y73.374 E19.24176
G1 X102.191 Y73.714 E19.27394
G1 X102.864 Y74.284 E19.31794
G1 X116.999 Y88.472 E20.31711
G1 X117.425 Y88.956 E20.34928
G1 X117.787 Y89.489 E20.38142
G1 X118.081 Y90.063 E20.4136
G1 X118.302 Y90.668 E20.44573
G1 X118.446 Y91.297 E20.47793
G1 X118.511 Y91.938 E20.51007
G1 X118.496 Y92.583 E20.54226
G1 X118.402 Y93.22 E20.57438
G1 X118.229 Y93.842 E20.60659
G1 X117.981 Y94.437 E20.63875
G1 X117.662 Y94.996 E20.67086
G1 X117.275 Y95.512 E20.70304
G1 X116.992 Y95.819 E20.72387
G1 X102.861 Y109.95 E21.72089
G1 X102.378 Y110.377 E21.75305
G1 X101.845 Y110.74 E21.78523
G1 X101.272 Y111.035 E21.81738
G1 X100.667 Y111.257 E21.84953
G1 X100.039 Y111.402 E21.88169
G1 X99.398 Y111.469 E21.91384
G1 X98.753 Y111.455 E21.94603
G1 X98.115 Y111.362 E21.97819
G1 X97.432 Y111.169 E22.0136
G1 X95.229 Y110.381 E22.13033
G1 X90.085 Y108.77 E22.39926
G1 X84.837 Y107.446 E22.66928
G1 X82.286 Y106.919 E22.79924
G1 X76.96 Y106.048 E23.06849
G1 X71.641 Y105.485 E23.33534
G1 X66.24 Y105.22 E23.60512
G1 X59.983 Y105.189 E23.91728
G1 X59.34 Y105.146 E23.94943
G1 X58.707 Y105.023 E23.98161
G1 X58.094 Y104.823 E24.01377
G1 X57.51 Y104.549 E24.04596
G1 X56.965 Y104.205 E24.07811
G1 X56.467 Y103.796 E24.11026
G1 X56.023 Y103.329 E24.14241
G1 X55.641 Y102.81 E24.17456
G1 X55.325 Y102.247 E24.20677
G1 X55.082 Y101.651 E24.23888
G1 X54.914 Y101.028 E24.27107
G1 X54.824 Y100.39 E24.30322
G1 X54.809 Y99.988 E24.32329
G1 X54.81 Y90.005 E24.82134
G1 X54.85 Y89.362 E24.85348
G1 X54.969 Y88.729 E24.88562
G1 X55.166 Y88.115 E24.91779
G1 X55.437 Y87.53 E24.94995
G1 X55.779 Y86.983 E24.98214
G1 X56.186 Y86.483 E25.0143
G1 X56.651 Y86.037 E25.04645
G1 X57.168 Y85.651 E25.07864
G1 X57.617 Y85.389 E25.10457
G1 F1500 E23.10457
G0 F3600 X78.521 Y85.389
G0 X79.806 Y85.389
G0 X79.856 Y78.67
G0 X79.786 Y78.6
;TYPE:WALL-INNER
G1 F1500 E25.10457
G1 F1800 X97.362 Y78.6 E25.98144
G1 X97.364 Y78.6 E25.98154
G1 X97.844 Y78.6 E26.00549
G1 X97.504 Y78.94 E26.0184
G1 X84.442 Y92.001 E26.93996
G1 X84.301 Y92.142 E26.9499
G1 X84.442 Y92.283 E26.95633
G1 X89.22 Y97.06 E27.29341
G1 X89.56 Y97.4 E27.3174
G1 X89.08 Y97.4 E27.33028
G1 X89.078 Y97.4 E27.33038
G1 X79.786 Y97.4 E27.79396
G1 X79.786 Y78.6 E28.73189
G0 F3600 X79.386 Y78.2
;TYPE:WALL-OUTER
G1 F1800 X98.328 Y78.2 E29.67692
G1 X98.33 Y78.2 E29.67701
G1 X98.81 Y78.2 E29.70096
G1 X98.47 Y78.54 E29.71387
G1 X85.008 Y92.001 E30.66365
G1 X84.867 Y92.142 E30.6736
G1 X85.008 Y92.283 E30.68002
G1 X90.186 Y97.46 E31.04532
G1 X90.526 Y97.8 E31.06931
G1 X90.046 Y97.8 E31.0822
G1 X90.044 Y97.8 E31.0823
G1 X79.386 Y97.8 E31.61403
G1 X79.386 Y78.2 E32.59187
G0 F3600 X79.586 Y78.2
G0 X79.965 Y78.833
;TYPE:SKIN
G1 F1800 X88.659 Y87.527 E33.20528
G1 X88.729 Y87.597
G0 F3600 X88.942 Y87.244
G1 F1800 X80.477 Y78.78 E33.8025
G1 X80.407 Y78.71
G0 F3600 X81.042 Y78.78
G1 F1800 X89.224 Y86.962 E34.37978
G1 X89.294 Y87.032
G0 F3600 X89.507 Y86.679
G1 F1800 X81.608 Y78.78 E34.9371
G1 X81.538 Y78.71
G0 F3600 X82.174 Y78.78
G1 F1800 X89.79 Y86.396 E35.47445
G1 X89.86 Y86.466
G0 F3600 X90.073 Y86.113
G1 F1800 X82.739 Y78.78 E35.99187
G1 X82.669 Y78.71
G0 F3600 X83.305 Y78.78
G1 F1800 X90.356 Y85.83 E36.48932
G1 X90.426 Y85.9
G0 F3600 X90.639 Y85.547
G1 F1800 X83.871 Y78.78 E36.9668
G1 X83.801 Y78.71
G0 F3600 X84.437 Y78.78
G1 F1800 X90.922 Y85.265 E37.42435
G1 X90.992 Y85.335
G0 F3600 X91.205 Y84.982
G1 F1800 X85.002 Y78.78 E37.86197
G1 X84.932 Y78.71
G0 F3600 X85.568 Y78.78
G1 F1800 X91.488 Y84.7 E38.27966
G1 X91.558 Y84.77
G0 F3600 X91.771 Y84.417
G1 F1800 X86.134 Y78.78 E38.67738
G1 X86.064 Y78.71
G0 F3600 X86.699 Y78.78
G1 F1800 X92.053 Y84.134 E39.05514
G1 X92.123 Y84.204
G0 F3600 X92.336 Y83.851
G1 F1800 X87.265 Y78.78 E39.41292
G1 X87.195 Y78.71
G0 F3600 X87.831 Y78.78
G1 F1800 X92.619 Y83.568 E39.75074
G1 X92.689 Y83.638
G0 F3600 X92.902 Y83.285
G1 F1800 X88.396 Y78.78 E40.06863
G1 X88.326 Y78.71
G0 F3600 X88.962 Y78.78
G1 F1800 X93.185 Y83.003 E40.36658
G1 X93.255 Y83.073
G0 F3600 X93.468 Y82.72
G1 F1800 X89.528 Y78.78 E40.64457
G1 X89.458 Y78.71
G0 F3600 X90.093 Y78.78
G1 F1800 X93.751 Y82.437 E40.90263
G1 X93.821 Y82.507
G0 F3600 X94.033 Y82.154
G1 F1800 X90.659 Y78.78 E41.14068
G1 X90.589 Y78.71
G0 F3600 X91.225 Y78.78
G1 F1800 X94.316 Y81.871 E41.35877
G1 X94.386 Y81.941
G0 F3600 X94.599 Y81.588
G1 F1800 X91.79 Y78.78 E41.55693
G1 X91.72 Y78.71
G0 F3600 X92.356 Y78.78
G1 F1800 X94.882 Y81.305 E41.73511
G1 X94.952 Y81.375
G0 F3600 X95.165 Y81.023
G1 F1800 X92.922 Y78.78 E41.89337
G1 X92.852 Y78.71
G0 F3600 X93.488 Y78.78
G1 F1800 X95.448 Y80.74 E42.03166
G1 X95.518 Y80.81
G0 F3600 X95.73 Y80.457
G1 F1800 X94.053 Y78.78 E42.14998
G1 X93.983 Y78.71
G0 F3600 X94.619 Y78.78
G1 F1800 X96.013 Y80.174 E42.24833
G1 X96.083 Y80.244
G0 F3600 X96.296 Y79.891
G1 F1800 X95.185 Y78.78 E42.32672
G1 X95.115 Y78.71
G0 F3600 X95.75 Y78.78
G1 F1800 X96.579 Y79.608 E42.38518
G1 X96.649 Y79.678
G0 F3600 X96.589 Y79.053
G1 F1800 X97.013 Y78.911 E42.41367
G0 F3600 X97.145 Y79.043
G0 X88.376 Y87.81
G1 F1800 X79.965 Y79.399 E43.00712
G1 X79.895 Y79.329
G0 F3600 X79.965 Y79.965
G1 F1800 X88.093 Y88.093 E43.58059
G1 X88.163 Y88.163
G0 F3600 X87.81 Y88.376
G1 F1800 X79.965 Y80.53 E44.13413
G1 X79.895 Y80.46
G0 F3600 X79.965 Y81.096
G1 F1800 X87.527 Y88.659 E44.66771
G1 X87.597 Y88.729
G0 F3600 X87.244 Y88.942
G1 F1800 X79.965 Y81.662 E45.18132
G1 X79.895 Y81.592
G0 F3600 X79.965 Y82.228
G1 F1800 X86.962 Y89.224 E45.67496
G1 X87.032 Y89.294
G0 F3600 X86.679 Y89.507
G1 F1800 X79.965 Y82.793 E46.14867
G1 X79.895 Y82.723
G0 F3600 X79.965 Y83.359
G1 F1800 X86.396 Y89.79 E46.60241
G1 X86.466 Y89.86
G0 F3600 X86.113 Y90.073
G1 F1800 X79.965 Y83.925 E47.03618
G1 X79.895 Y83.855
G0 F3600 X79.965 Y84.49
G1 F1800 X85.83 Y90.356 E47.45002
G1 X85.9 Y90.426
G0 F3600 X85.547 Y90.639
G1 F1800 X79.965 Y85.056 E47.8439
G1 X79.895 Y84.986
G0 F3600 X79.965 Y85.622
G1 F1800 X85.265 Y90.921 E48.21781
G1 X85.335 Y90.991
G0 F3600 X84.982 Y91.204
G1 F1800 X79.965 Y86.187 E48.57178
G1 X79.895 Y86.117
G0 F3600 X79.965 Y86.753
G1 F1800 X84.699 Y91.487 E48.90579
G1 X84.769 Y91.557
G0 F3600 X84.416 Y91.77
G1 F1800 X79.965 Y87.319 E49.21984
G1 X79.895 Y87.249
G0 F3600 X79.965 Y87.884
G1 F1800 X84.133 Y92.053 E49.51395
G1 X84.203 Y92.123
G0 F3600 X84.201 Y92.142
G0 X79.965 Y91.844
G1 F1800 X85.34 Y97.219 E49.89318
G1 X85.41 Y97.289
G0 F3600 X85.905 Y97.219
G1 F1800 X79.965 Y91.279 E50.31228
G1 X79.895 Y91.209
G0 F3600 X79.965 Y90.713
G1 F1800 X86.471 Y97.219 E50.77131
G1 X86.541 Y97.289
G0 F3600 X87.037 Y97.219
G1 F1800 X79.965 Y90.147 E51.27028
G1 X79.895 Y90.077
G0 F3600 X79.965 Y89.581
G1 F1800 X87.602 Y97.219 E51.80915
G1 X87.672 Y97.289
G0 F3600 X88.168 Y97.219
G1 F1800 X79.965 Y89.016 E52.38791
G1 X79.895 Y88.946
G0 F3600 X79.965 Y88.45
G1 F1800 X88.734 Y97.219 E53.00661
G1 X88.804 Y97.289
M104 S265
G0 F3600 X84.774 Y97.219
G1 F1800 X79.965 Y92.41 E53.34592
G1 X79.895 Y92.34
G0 F3600 X79.965 Y92.976
G1 F1800 X84.208 Y97.219 E53.64528
G1 X84.278 Y97.289
G0 F3600 X83.642 Y97.219
G1 F1800 X79.965 Y93.541 E53.90475
G1 X79.895 Y93.471
G0 F3600 X79.965 Y94.107
G1 F1800 X83.077 Y97.219 E54.12432
G1 X83.147 Y97.289
G0 F3600 X82.511 Y97.219
G1 F1800 X79.965 Y94.673 E54.30395
G1 X79.895 Y94.603
G0 F3600 X79.965 Y95.238
G1 F1800 X81.945 Y97.219 E54.44369
G1 X82.015 Y97.289
G0 F3600 X81.38 Y97.219
G1 F1800 X79.965 Y95.804 E54.54352
G1 X79.895 Y95.734
G0 F3600 X79.965 Y96.37
G1 F1800 X80.814 Y97.219 E54.60342
G1 X80.884 Y97.289
G0 F3600 X80.248 Y97.219
G1 F1800 X79.965 Y96.935 E54.62343
G0 F3600 X89.468 Y97.362
G0 X89.756 Y97.393
;TYPE:SKIN
G1 F1800 X89.967 Y97.604 E54.63087
G0 F3600 X89.468 Y97.362
G0 X84.261 Y92.142
G0 X97.752 Y78.638
G0 X98.053 Y78.537
G1 F1800 X98.229 Y78.43 E54.63462
G0 F3600 X98.265 Y78.466
G92 E0
;MATBEGIN
G91                       ; Relative moves.
G1 Z2            ; Lift nozzel away so i doesnt melt your print.
G1 E1 F500           ; Quicky extrude about the length of your melt zone.
G1 E-2 F1000       ; Do a quick retraction a little shorter than your melt zone. This is to avoid stringing.
G4 P2500             ; Wait 2.5 seconds so that filament can set.
G1 E-108 F 8000  ; Quickly pull filament out of the Y-splitter.
G90                       ; Abolute moves.
G92 E0          ; Set extruder position to 0
T1
G92 E0
G91                       ; Relative moves.
G1 E105 F2000     ; Quickly load next material 95%.
G1 E4.5 F2000         ; Slowly load last 5%. -0.5mm as to not put anything on the print, just make sure to account for it in the prime tower
G1 Z-2         ; Put the nozzel back down.
G90                       ; Abolute moves.
G92 E0          ; Set extruder position to 0
;MATEND
M109 S260
M104 T0 S260
G0 X98.265 Y78.466 Z0.3
G1 F1500 E-0.8
G0 F3600 X98.265 Y88.466
G0 X104.428 Y82.301
G0 X104.281 Y72.872
;TYPE:SKIRT
G1 F1500 E0
G1 F1800 X118.416 Y87.06 E0.99917
G1 X118.922 Y87.625 E1.03701
G1 X119.366 Y88.24 E1.07485
G1 X119.743 Y88.899 E1.11273
G1 X120.049 Y89.593 E1.15057
G1 X120.28 Y90.316 E1.18844
G1 X120.433 Y91.059 E1.22629
G1 X120.508 Y91.814 E1.26414
G1 X120.502 Y92.573 E1.30201
G1 X120.417 Y93.327 E1.33986
G1 X120.253 Y94.067 E1.37768
G1 X120.012 Y94.787 E1.41556
G1 X119.696 Y95.477 E1.45342
G1 X119.31 Y96.13 E1.49126
G1 X118.857 Y96.738 E1.52909
G1 X118.406 Y97.233 E1.5625
G1 X104.275 Y111.364 E2.55952
G1 X103.711 Y111.872 E2.59739
G1 X103.097 Y112.317 E2.63522
G1 X102.439 Y112.695 E2.67308
G1 X101.745 Y113.002 E2.71094
G1 X101.023 Y113.234 E2.74877
G1 X100.28 Y113.389 E2.78664
G1 X99.525 Y113.465 E2.8245
G1 X98.767 Y113.461 E2.86231
G1 X98.013 Y113.377 E2.90016
G1 X97.272 Y113.214 E2.93802
G1 X96.759 Y113.052 E2.96485
G1 X94.613 Y112.284 E3.07857
G1 X89.528 Y110.691 E3.34442
G1 X84.38 Y109.393 E3.60929
G1 X81.946 Y108.89 E3.73329
G1 X76.692 Y108.031 E3.99889
G1 X71.473 Y107.479 E4.26072
G1 X66.2 Y107.22 E4.52411
G1 X59.973 Y107.189 E4.83478
G1 X59.215 Y107.145 E4.87266
G1 X58.467 Y107.022 E4.91048
G1 X57.735 Y106.821 E4.94835
G1 X57.029 Y106.543 E4.98621
G1 X56.356 Y106.193 E5.02405
G1 X55.723 Y105.775 E5.0619
G1 X55.138 Y105.292 E5.09974
G1 X54.607 Y104.75 E5.1376
G1 X54.136 Y104.155 E5.17546
G1 X53.731 Y103.514 E5.21329
G1 X53.395 Y102.833 E5.25117
G1 X53.132 Y102.122 E5.28899
G1 X52.946 Y101.386 E5.32687
G1 X52.838 Y100.635 E5.36472
G1 X52.809 Y99.988 E5.39703
G1 X52.81 Y90.005 E5.89508
G1 X52.85 Y89.248 E5.9329
G1 X52.97 Y88.498 E5.9708
G1 X53.167 Y87.766 E6.00862
G1 X53.441 Y87.058 E6.04649
G1 X53.788 Y86.384 E6.08431
