;FLAVOR:RepRap
;TIME:964
;Filament used: 0.48241m
;Layer height: 0.2
;Generated with Cura_SteamEngine 2.6.0-BETA
M190 S65
M104 S270
M104 T1 S260
M109 S270
M109 T1 S260
;START
G28 ;Home
G1 Z15.0 F6000 ;Move the platform down 15mm
;Prime the extruder
G92 E0
G1 F200 E3
G92 E0
;StartEnd
;LAYER_COUNT:25
;LAYER:0
M107
G0 F3600 X56.968 Y84.836 Z0.3
;TYPE:SKIRT
G1 F1800 X57.585 Y84.521 E0.03456
G1 X58.233 Y84.278 E0.06909
G1 X58.906 Y84.111 E0.10368
G1 X59.592 Y84.023 E0.13819
G1 X60.01 Y84.009 E0.15905
G1 X70.002 Y84.011 E0.65756
G1 X70.694 Y84.051 E0.69214
G1 X71.376 Y84.171 E0.72669
G1 X72.138 Y84.405 E0.76646
G1 X74.083 Y85.147 E0.87031
G1 X79.181 Y86.867 E1.13874
G1 X84.337 Y88.288 E1.40556
G1 X86.933 Y88.887 E1.53848
G1 X89.468 Y89.395 E1.66747
G1 X94.742 Y90.223 E1.93381
G1 X100.068 Y90.753 E2.20084
G1 X104.199 Y90.96 E2.40719
G1 X104.887 Y91.035 E2.44172
G1 X105.563 Y91.188 E2.4763
G1 X106.216 Y91.418 E2.51084
G1 X106.838 Y91.722 E2.54538
G1 X107.421 Y92.096 E2.57994
G1 X108.15 Y92.718 E2.62775
G1 X122.285 Y106.907 E3.62695
G1 X122.744 Y107.425 E3.66148
G1 X123.141 Y107.993 E3.69606
G1 X123.47 Y108.602 E3.73059
G1 X123.726 Y109.246 E3.76516
G1 X123.907 Y109.914 E3.79969
G1 X124.009 Y110.599 E3.83424
G1 X124.032 Y111.291 E3.86879
G1 X123.975 Y111.982 E3.90338
G1 X123.839 Y112.661 E3.93793
G1 X123.625 Y113.319 E3.97245
G1 X123.337 Y113.949 E4.00701
G1 X122.978 Y114.541 E4.04155
G1 X122.553 Y115.088 E4.07611
G1 X122.277 Y115.385 E4.09633
G1 X108.147 Y129.515 E5.09328
G1 X107.63 Y129.975 E5.12781
G1 X107.063 Y130.373 E5.16237
G1 X106.454 Y130.703 E5.19693
G1 X105.811 Y130.961 E5.23149
G1 X105.143 Y131.143 E5.26603
G1 X104.458 Y131.246 E5.30059
G1 X103.766 Y131.27 E5.33514
G1 X103.076 Y131.215 E5.36967
G1 X102.396 Y131.08 E5.40426
G1 X101.737 Y130.867 E5.43881
G1 X101.096 Y130.574 E5.47397
G1 X98.81 Y129.363 E5.60303
G1 X93.942 Y127.042 E5.87209
G1 X88.982 Y125.01 E6.13951
G1 X86.544 Y124.133 E6.26877
G1 X82.098 Y122.71 E6.50167
G1 X81.451 Y122.462 E6.53624
G1 X80.838 Y122.14 E6.57078
G1 X80.266 Y121.75 E6.60532
G1 X79.881 Y121.427 E6.63039
G1 X76.705 Y118.526 E6.845
G1 X72.608 Y115.124 E7.11068
G1 X68.322 Y111.955 E7.37661
G1 X63.881 Y109.045 E7.6415
G1 X59.228 Y106.36 E7.90951
G1 X57.213 Y105.299 E8.02313
G1 X56.62 Y104.941 E8.05769
G1 X56.072 Y104.518 E8.09222
G1 X55.576 Y104.034 E8.1268
G1 X55.14 Y103.496 E8.16135
G1 X54.768 Y102.912 E8.19589
G1 X54.467 Y102.288 E8.23046
G1 X54.239 Y101.634 E8.26501
G1 X54.088 Y100.959 E8.29952
G1 X54.009 Y99.99 E8.34802
G1 X54.009 Y90.009 E8.84598
G1 X54.049 Y89.318 E8.88051
G1 X54.168 Y88.635 E8.9151
G1 X54.366 Y87.972 E8.94962
G1 X54.638 Y87.335 E8.98417
G1 X54.982 Y86.734 E9.01872
G1 X55.393 Y86.176 E9.0533
G1 X55.865 Y85.67 E9.08782
G1 X56.393 Y85.221 E9.1224
G1 X56.968 Y84.836 E9.15692
G0 F3600 X57.349 Y85.081
G1 F1800 X57.956 Y84.799 E9.19031
G1 X58.592 Y84.591 E9.2237
G1 X59.248 Y84.461 E9.25706
G1 X60.01 Y84.409 E9.29517
G1 X70.002 Y84.411 E9.79367
G1 X70.67 Y84.451 E9.82706
G1 X71.328 Y84.571 E9.86042
G1 X71.996 Y84.778 E9.89531
G1 X73.971 Y85.531 E10.00077
G1 X79.056 Y87.247 E10.26851
G1 X84.254 Y88.68 E10.53752
G1 X86.83 Y89.274 E10.66941
G1 X89.401 Y89.789 E10.80022
G1 X94.712 Y90.623 E11.06844
G1 X100.028 Y91.152 E11.33496
G1 X104.179 Y91.36 E11.54232
G1 X104.844 Y91.433 E11.57569
G1 X105.495 Y91.585 E11.60905
G1 X106.124 Y91.814 E11.64244
G1 X106.721 Y92.116 E11.67582
G1 X107.278 Y92.487 E11.70921
G1 X107.866 Y93.001 E11.74817
G1 X122.001 Y107.19 E12.74738
G1 X122.444 Y107.691 E12.78074
G1 X122.824 Y108.242 E12.81414
G1 X123.136 Y108.834 E12.84752
G1 X123.375 Y109.459 E12.88091
G1 X123.538 Y110.108 E12.91429
G1 X123.622 Y110.771 E12.94763
G1 X123.626 Y111.44 E12.98101
G1 X123.551 Y112.105 E13.0144
G1 X123.396 Y112.756 E13.04778
G1 X123.166 Y113.384 E13.08115
G1 X122.862 Y113.98 E13.11453
G1 X122.489 Y114.535 E13.14789
G1 X121.994 Y115.102 E13.18544
G1 X107.864 Y129.232 E14.18239
G1 X107.363 Y129.676 E14.21579
G1 X106.813 Y130.057 E14.24917
G1 X106.222 Y130.37 E14.28253
G1 X105.598 Y130.61 E14.31589
G1 X104.949 Y130.774 E14.34928
G1 X104.285 Y130.859 E14.38268
G1 X103.616 Y130.865 E14.41606
G1 X102.951 Y130.79 E14.44945
G1 X102.3 Y130.637 E14.48281
G1 X101.672 Y130.408 E14.51616
G1 X101.283 Y130.221 E14.53769
G1 X98.981 Y129.002 E14.66765
G1 X94.108 Y126.678 E14.937
G1 X89.121 Y124.635 E15.20587
G1 X86.667 Y123.753 E15.33596
G1 X82.22 Y122.329 E15.56892
G1 X81.596 Y122.088 E15.6023
G1 X81.005 Y121.773 E15.63571
G1 X80.456 Y121.391 E15.66908
G1 X80.151 Y121.131 E15.68907
G1 X76.982 Y118.237 E15.90318
G1 X72.846 Y114.801 E16.17144
G1 X68.554 Y111.629 E16.4377
G1 X64.086 Y108.701 E16.70421
G1 X59.435 Y106.018 E16.97209
G1 X57.399 Y104.945 E17.08691
G1 X56.827 Y104.598 E17.12029
G1 X56.3 Y104.186 E17.15366
G1 X55.826 Y103.714 E17.18703
G1 X55.412 Y103.188 E17.22043
G1 X55.064 Y102.617 E17.25379
G1 X54.786 Y102.009 E17.28714
G1 X54.582 Y101.371 E17.32056
G1 X54.456 Y100.714 E17.35394
G1 X54.409 Y99.99 E17.39013
G1 X54.409 Y90.009 E17.88809
G1 X54.449 Y89.341 E17.92147
G1 X54.568 Y88.683 E17.95483
G1 X54.765 Y88.043 E17.98824
G1 X55.037 Y87.432 E18.02161
G1 X55.38 Y86.858 E18.05497
G1 X55.789 Y86.328 E18.08837
G1 X56.258 Y85.851 E18.12174
G1 X56.78 Y85.433 E18.15511
G1 X57.349 Y85.081 E18.18849
G0 F3600 X57.727 Y85.336
G1 F1800 X58.323 Y85.09 E18.22065
G1 X58.944 Y84.919 E18.25279
G1 X59.582 Y84.827 E18.28495
G1 X60.01 Y84.809 E18.30632
G1 X70.002 Y84.811 E18.80482
G1 X70.645 Y84.851 E18.83697
G1 X71.279 Y84.97 E18.86915
G1 X71.853 Y85.152 E18.89919
G1 X73.818 Y85.901 E19.0041
G1 X78.949 Y87.632 E19.27427
G1 X84.155 Y89.068 E19.54369
G1 X86.733 Y89.662 E19.67568
G1 X89.33 Y90.182 E19.80782
G1 X94.662 Y91.02 E20.0771
G1 X99.99 Y91.55 E20.34422
G1 X104.159 Y91.759 E20.55248
G1 X104.799 Y91.832 E20.58461
G1 X105.426 Y91.982 E20.61678
G1 X106.03 Y92.209 E20.64897
G1 X106.6 Y92.51 E20.68113
G1 X107.129 Y92.878 E20.71328
G1 X107.583 Y93.283 E20.74363
G1 X121.718 Y107.472 E21.74284
G1 X122.144 Y107.956 E21.77501
G1 X122.506 Y108.489 E21.80715
G1 X122.8 Y109.063 E21.83933
G1 X123.021 Y109.669 E21.87151
G1 X123.165 Y110.297 E21.90365
G1 X123.23 Y110.938 E21.9358
G1 X123.215 Y111.583 E21.96798
G1 X123.121 Y112.221 E22.00016
G1 X122.948 Y112.842 E22.03232
G1 X122.7 Y113.437 E22.06448
G1 X122.38 Y113.997 E22.09666
G1 X121.994 Y114.512 E22.12877
G1 X121.711 Y114.819 E22.1496
G1 X107.581 Y128.949 E23.14654
G1 X107.098 Y129.376 E23.17871
G1 X106.565 Y129.739 E23.21088
G1 X105.992 Y130.034 E23.24303
G1 X105.387 Y130.256 E23.27519
G1 X104.759 Y130.401 E23.30734
G1 X104.118 Y130.468 E23.33949
G1 X103.473 Y130.454 E23.37168
G1 X102.835 Y130.361 E23.40385
G1 X102.214 Y130.19 E23.43598
G1 X101.47 Y129.867 E23.47645
G1 X99.162 Y128.645 E23.60674
G1 X94.275 Y126.314 E23.87687
G1 X89.255 Y124.258 E24.14751
G1 X86.806 Y123.377 E24.27735
G1 X82.342 Y121.948 E24.5112
G1 X81.741 Y121.714 E24.54337
G1 X81.174 Y121.407 E24.57554
G1 X80.42 Y120.836 E24.62273
G1 X77.235 Y117.927 E24.83793
G1 X73.096 Y114.489 E25.10637
G1 X68.773 Y111.294 E25.37456
G1 X64.305 Y108.366 E25.64107
G1 X59.612 Y105.658 E25.91138
G1 X57.586 Y104.591 E26.02562
G1 X57.035 Y104.256 E26.05779
G1 X56.53 Y103.855 E26.08997
G1 X56.079 Y103.395 E26.12211
G1 X55.688 Y102.882 E26.15429
G1 X55.363 Y102.325 E26.18646
G1 X55.11 Y101.732 E26.21862
G1 X54.932 Y101.113 E26.25076
G1 X54.832 Y100.476 E26.28293
G1 X54.809 Y99.99 E26.3072
G1 X54.809 Y90.009 E26.80515
G1 X54.849 Y89.366 E26.8373
G1 X54.968 Y88.732 E26.86948
G1 X55.165 Y88.118 E26.90165
G1 X55.436 Y87.533 E26.93382
G1 X55.778 Y86.986 E26.966
G1 X56.184 Y86.486 E26.99813
G1 X56.649 Y86.04 E27.03028
G1 X57.166 Y85.655 E27.06244
G1 X57.727 Y85.336 E27.09463
G1 F1500 E25.09463
G0 F3600 X83.24 Y97.614
G0 X84.519 Y97.614
G0 X84.575 Y97.67
G0 X84.505 Y97.6
;TYPE:WALL-INNER
G1 F1500 E27.09463
G1 F1800 X102.081 Y97.6 E27.9715
G1 X102.083 Y97.6 E27.9716
G1 X102.563 Y97.6 E27.99555
G1 X102.223 Y97.94 E28.00846
G1 X89.161 Y111.001 E28.93002
G1 X89.02 Y111.142 E28.93997
G1 X89.161 Y111.283 E28.94639
G1 X93.939 Y116.06 E29.28347
G1 X94.279 Y116.4 E29.30746
G1 X93.799 Y116.4 E29.32034
G1 X93.797 Y116.4 E29.32044
G1 X84.505 Y116.4 E29.78402
G1 X84.505 Y97.6 E30.72196
G0 F3600 X84.105 Y97.2
;TYPE:WALL-OUTER
G1 F1800 X103.047 Y97.2 E31.66698
G1 X103.049 Y97.2 E31.66708
G1 X103.529 Y97.2 E31.69102
G1 X103.189 Y97.54 E31.70393
G1 X89.727 Y111.001 E32.65371
G1 X89.586 Y111.142 E32.66366
G1 X89.727 Y111.283 E32.67008
G1 X94.905 Y116.46 E33.03538
G1 X95.245 Y116.8 E33.05937
G1 X94.765 Y116.8 E33.07226
G1 X94.763 Y116.8 E33.07236
G1 X84.105 Y116.8 E33.60409
G1 X84.105 Y97.2 E34.58194
G0 F3600 X84.305 Y97.2
G0 X84.769 Y97.78
;TYPE:SKIN
G1 F1800 X93.447 Y106.458 E35.19421
G1 X93.517 Y106.528
G0 F3600 X93.73 Y106.175
G1 F1800 X85.335 Y97.78 E35.78653
G1 X85.265 Y97.71
G0 F3600 X85.9 Y97.78
G1 F1800 X94.013 Y105.892 E36.35891
G1 X94.083 Y105.962
G0 F3600 X94.296 Y105.609
G1 F1800 X86.466 Y97.78 E36.91132
G1 X86.396 Y97.71
G0 F3600 X87.032 Y97.78
G1 F1800 X94.579 Y105.327 E37.4438
G1 X94.649 Y105.397
G0 F3600 X94.861 Y105.044
G1 F1800 X87.597 Y97.78 E37.95632
G1 X87.527 Y97.71
G0 F3600 X88.163 Y97.78
G1 F1800 X95.144 Y104.761 E38.44887
G1 X95.214 Y104.831
G0 F3600 X95.427 Y104.478
G1 F1800 X88.729 Y97.78 E38.92145
G1 X88.659 Y97.71
G0 F3600 X89.294 Y97.78
G1 F1800 X95.711 Y104.196 E39.37416
G1 X95.781 Y104.266
G0 F3600 X95.993 Y103.913
G1 F1800 X89.86 Y97.78 E39.80688
G1 X89.79 Y97.71
G0 F3600 X90.426 Y97.78
G1 F1800 X96.276 Y103.63 E40.21963
G1 X96.346 Y103.7
G0 F3600 X96.559 Y103.347
G1 F1800 X90.991 Y97.78 E40.61245
G1 X90.921 Y97.71
G0 F3600 X91.557 Y97.78
G1 F1800 X96.842 Y103.065 E40.98533
G1 X96.912 Y103.135
G0 F3600 X97.125 Y102.782
G1 F1800 X92.123 Y97.78 E41.33825
G1 X92.053 Y97.71
G0 F3600 X92.688 Y97.78
G1 F1800 X97.408 Y102.499 E41.67124
G1 X97.478 Y102.569
G0 F3600 X97.691 Y102.216
G1 F1800 X93.254 Y97.78 E41.98426
G1 X93.184 Y97.71
G0 F3600 X93.82 Y97.78
G1 F1800 X97.973 Y101.933 E42.27727
G1 X98.043 Y102.003
G0 F3600 X98.256 Y101.65
G1 F1800 X94.386 Y97.78 E42.55032
G1 X94.316 Y97.71
G0 F3600 X94.951 Y97.78
G1 F1800 X98.539 Y101.367 E42.80344
G1 X98.609 Y101.437
G0 F3600 X98.822 Y101.085
G1 F1800 X95.517 Y97.78 E43.03662
G1 X95.447 Y97.71
G0 F3600 X96.083 Y97.78
G1 F1800 X99.105 Y100.802 E43.24984
G1 X99.175 Y100.872
G0 F3600 X99.388 Y100.519
G1 F1800 X96.648 Y97.78 E43.44313
G1 X96.578 Y97.71
G0 F3600 X97.214 Y97.78
G1 F1800 X99.67 Y100.236 E43.61641
G1 X99.74 Y100.306
G0 F3600 X99.953 Y99.953
G1 F1800 X97.78 Y97.78 E43.76973
G1 X97.71 Y97.71
G0 F3600 X98.345 Y97.78
G1 F1800 X100.236 Y99.67 E43.90312
G1 X100.306 Y99.74
G0 F3600 X100.519 Y99.388
G1 F1800 X98.911 Y97.78 E44.01657
G1 X98.841 Y97.71
G0 F3600 X99.477 Y97.78
G1 F1800 X100.802 Y99.105 E44.11005
G1 X100.872 Y99.175
G0 F3600 X101.085 Y98.822
G1 F1800 X100.042 Y97.78 E44.18361
G1 X99.972 Y97.71
G0 F3600 X100.608 Y97.78
G1 F1800 X101.367 Y98.539 E44.23716
G1 X101.437 Y98.609
G0 F3600 X101.412 Y98.018
G1 F1800 X101.836 Y97.876 E44.26075
G0 F3600 X101.933 Y97.973
G0 X93.164 Y106.741
G1 F1800 X84.685 Y98.261 E44.85903
G1 X84.615 Y98.191
G0 F3600 X84.685 Y98.827
G1 F1800 X92.882 Y107.024 E45.43737
G1 X92.952 Y107.094
G0 F3600 X92.599 Y107.306
G1 F1800 X84.685 Y99.393 E45.99571
G1 X84.615 Y99.323
G0 F3600 X84.685 Y99.958
G1 F1800 X92.316 Y107.589 E46.53412
G1 X92.386 Y107.659
G0 F3600 X92.033 Y107.872
G1 F1800 X84.685 Y100.524 E47.05256
G1 X84.615 Y100.454
G0 F3600 X84.685 Y101.09
G1 F1800 X91.75 Y108.155 E47.55103
G1 X91.82 Y108.225
G0 F3600 X91.467 Y108.438
G1 F1800 X84.685 Y101.655 E48.02957
G1 X84.615 Y101.585
G0 F3600 X84.685 Y102.221
G1 F1800 X91.184 Y108.721 E48.48815
G1 X91.254 Y108.791
G0 F3600 X90.902 Y109.004
G1 F1800 X84.685 Y102.787 E48.92679
G1 X84.615 Y102.717
G0 F3600 X84.685 Y103.352
G1 F1800 X90.619 Y109.286 E49.34547
G1 X90.689 Y109.356
G0 F3600 X90.336 Y109.569
G1 F1800 X84.685 Y103.918 E49.74418
G1 X84.615 Y103.848
G0 F3600 X84.685 Y104.484
G1 F1800 X90.053 Y109.852 E50.12292
G1 X90.123 Y109.922
G0 F3600 X89.77 Y110.135
G1 F1800 X84.685 Y105.049 E50.48173
G1 X84.615 Y104.979
G0 F3600 X84.685 Y105.615
G1 F1800 X89.487 Y110.418 E50.82057
G1 X89.557 Y110.488
G0 F3600 X89.205 Y110.701
G1 F1800 X84.685 Y106.181 E51.13948
G1 X84.615 Y106.111
G0 F3600 X84.685 Y106.746
G1 F1800 X88.922 Y110.983 E51.43842
G1 X88.992 Y111.053
G0 F3600 X88.98 Y111.042
G0 X84.685 Y110.706
G1 F1800 X90.197 Y116.219 E51.82736
G1 X90.267 Y116.289
G0 F3600 X89.632 Y116.219
G1 F1800 X84.685 Y111.272 E52.1764
G1 X84.615 Y111.202
G0 F3600 X84.685 Y111.838
G1 F1800 X89.066 Y116.219 E52.4855
G1 X89.136 Y116.289
G0 F3600 X88.5 Y116.219
G1 F1800 X84.685 Y112.403 E52.7547
G1 X84.615 Y112.333
G0 F3600 X84.685 Y112.969
G1 F1800 X87.935 Y116.219 E52.98401
G1 X88.005 Y116.289
G0 F3600 X87.369 Y116.219
G1 F1800 X84.685 Y113.535 E53.17338
G1 X84.615 Y113.465
G0 F3600 X84.685 Y114.1
G1 F1800 X86.803 Y116.219 E53.32285
G1 X86.873 Y116.289
G0 F3600 X86.238 Y116.219
G1 F1800 X84.685 Y114.666 E53.43242
G1 X84.615 Y114.596
G0 F3600 X84.685 Y115.232
G1 F1800 X85.672 Y116.219 E53.50206
G1 X85.742 Y116.289
G0 F3600 X85.106 Y116.219
G1 F1800 X84.685 Y115.797 E53.5318
G0 F3600 X84.685 Y110.141
G1 F1800 X90.763 Y116.219 E53.96064
G1 X90.833 Y116.289
G0 F3600 X91.329 Y116.219
G1 F1800 X84.685 Y109.575 E54.42941
G1 X84.615 Y109.505
G0 F3600 X84.685 Y109.009
G1 F1800 X91.894 Y116.219 E54.93808
G1 X91.964 Y116.289
G0 F3600 X92.46 Y116.219
M104 S265
G1 F1800 X84.685 Y108.444 E55.48664
G1 X84.615 Y108.374
G0 F3600 X84.685 Y107.878
G1 F1800 X93.026 Y116.219 E56.07515
G1 X93.096 Y116.289
G0 F3600 X93.591 Y116.219
G1 F1800 X84.685 Y107.312 E56.70355
G1 X84.615 Y107.242
G0 F3600 X94.187 Y116.362
G0 X94.433 Y116.495
;TYPE:SKIN
G1 F1800 X94.542 Y116.604 E56.70739
G0 F3600 X94.187 Y116.362
G0 X88.98 Y111.142
G0 X102.471 Y97.638
G0 X102.913 Y97.539
G1 F1800 X102.768 Y97.394 E56.71251
G92 E0
;EEND
; Pull out old material
G91                       ; Relative moves.
G1 Z2            ; Lift nozzel away so i doesnt melt your print.
G1 E1 F500           ; Quicky extrude about the length of your melt zone.
G1 E-2 F1000       ; Do a quick retraction a little shorter than your melt zone. This is to avoid stringing.
G4 P2500             ; Wait 2.5 seconds so that filament can set.
G1 E-108 F 8000  ; Quickly pull filament out of the Y-splitter.
G90                       ; Abolute moves.
G92 E0          ; Set extruder position to 0
;EENDEND
T1
G92 E0
;ESTART
; Load in next extruder
G91                       ; Relative moves.
G1 E105 F2000     ; Quickly load next material 95%.
G1 E4.5 F2000         ; Slowly load last 5%. -0.5mm as to not put anything on the print, just make sure to account for it in the prime tower
G1 Z-2         ; Put the nozzel back down.
G90                       ; Abolute moves.
G92 E0          ; Set extruder position to 0
;ESTARTEND
M109 S260
M104 T0 S260
G0 F3600 X102.768 Y97.394 Z0.3
G1 F1500 E-0.8
G0 F3600 X102.768 Y107.394
G0 X109.003 Y101.157
G0 X108.716 Y92.154
;TYPE:SKIRT
G1 F1500 E0
G1 F1800 X122.851 Y106.343 E0.99921
G1 X123.343 Y106.893 E1.03602
G1 X123.772 Y107.492 E1.07278
G1 X124.133 Y108.135 E1.10957
G1 X124.423 Y108.813 E1.14636
G1 X124.637 Y109.518 E1.18312
G1 X124.774 Y110.243 E1.21993
G1 X124.832 Y110.978 E1.25671
G1 X124.81 Y111.715 E1.2935
G1 X124.708 Y112.445 E1.33027
G1 X124.528 Y113.16 E1.36706
G1 X124.271 Y113.851 E1.40384
G1 X123.941 Y114.51 E1.44061
G1 X123.542 Y115.13 E1.47739
G1 X122.842 Y115.95 E1.53118
G1 X108.712 Y130.08 E2.52813
G1 X108.163 Y130.573 E2.56494
G1 X107.565 Y131.003 E2.60169
