;FLAVOR:RepRap
;TIME:828
;Filament used: 0.379004m
;Layer height: 0.2
;Generated with Cura_SteamEngine 2.6.0-BETA
M190 S65
M104 S270
M104 T1 S260
M109 S270
M109 T1 S260
G28 ;Home
G1 Z15.0 F6000 ;Move the platform down 15mm
;Prime the extruder
G92 E0
G1 F200 E3
G92 E0
;LAYER_COUNT:25
;LAYER:0
M107
G0 F3600 X56.97 Y84.833 Z0.3
G0 X57.291 Y84.658
;TYPE:SKIRT
G1 F1800 X59.316 Y83.628 E0.11335
G1 X64.015 Y80.999 E0.38198
G1 X68.522 Y78.131 E0.6485
G1 X70.646 Y76.649 E0.77771
G1 X75.119 Y73.238 E1.05835
G1 X75.693 Y72.85 E1.09292
G1 X76.308 Y72.532 E1.12746
G1 X76.955 Y72.286 E1.16199
G1 X77.627 Y72.116 E1.19657
G1 X78.313 Y72.025 E1.2311
G1 X78.747 Y72.009 E1.25276
G1 X98.765 Y71.977 E2.25147
G1 X99.457 Y72.016 E2.28605
G1 X100.139 Y72.134 E2.32058
G1 X100.803 Y72.33 E2.35512
G1 X101.441 Y72.602 E2.38972
G1 X102.042 Y72.945 E2.42424
G1 X102.6 Y73.355 E2.45879
G1 X103.027 Y73.744 E2.48761
G1 X117.127 Y87.909 E3.48473
G1 X117.587 Y88.427 E3.5193
G1 X117.983 Y88.995 E3.55384
G1 X118.312 Y89.605 E3.58842
G1 X118.568 Y90.248 E3.62295
G1 X118.749 Y90.917 E3.65752
G1 X118.851 Y91.602 E3.69207
G1 X118.873 Y92.294 E3.72662
G1 X118.816 Y92.984 E3.76116
G1 X118.679 Y93.663 E3.79572
G1 X118.465 Y94.322 E3.83028
G1 X118.177 Y94.951 E3.8648
G1 X117.818 Y95.543 E3.89934
G1 X117.393 Y96.09 E3.9339
G1 X117.118 Y96.385 E3.95402
G1 X102.987 Y110.516 E4.95104
G1 X102.47 Y110.976 E4.98556
G1 X101.903 Y111.374 E5.02012
G1 X101.294 Y111.704 E5.05468
G1 X100.651 Y111.962 E5.08924
G1 X99.983 Y112.144 E5.12379
G1 X99.298 Y112.247 E5.15835
G1 X98.606 Y112.271 E5.19289
G1 X97.916 Y112.216 E5.22742
G1 X97.236 Y112.081 E5.26201
G1 X96.723 Y111.922 E5.28881
G1 X94.563 Y111.149 E5.40326
G1 X89.416 Y109.537 E5.67235
G1 X84.201 Y108.222 E5.94067
G1 X81.703 Y107.706 E6.06792
G1 X76.43 Y106.843 E6.33449
G1 X71.131 Y106.283 E6.60034
G1 X65.779 Y106.02 E6.86767
G1 X59.977 Y105.989 E7.15714
G1 X59.286 Y105.945 E7.19168
G1 X58.604 Y105.822 E7.22625
G1 X57.941 Y105.621 E7.26082
G1 X57.306 Y105.346 E7.29534
G1 X56.707 Y104.998 E7.3299
G1 X56.151 Y104.585 E7.36446
G1 X55.648 Y104.109 E7.39901
G1 X55.202 Y103.579 E7.43357
G1 X54.82 Y103.002 E7.46809
G1 X54.508 Y102.384 E7.50263
G1 X54.268 Y101.734 E7.5372
G1 X54.105 Y101.061 E7.57174
G1 X54.021 Y100.373 E7.60632
G1 X54.009 Y99.988 E7.62554
G1 X54.01 Y90.005 E8.12359
G1 X54.05 Y89.314 E8.15813
G1 X54.169 Y88.632 E8.19267
G1 X54.367 Y87.968 E8.22723
G1 X54.639 Y87.331 E8.26179
G1 X54.983 Y86.73 E8.29634
G1 X55.394 Y86.173 E8.33087
G1 X55.867 Y85.666 E8.36547
G1 X56.394 Y85.218 E8.39997
G1 X56.97 Y84.833 E8.43454
G1 X57.291 Y84.658 E8.45278
G0 F3600 X57.472 Y85.014
G1 F1800 X59.514 Y83.976 E8.56706
G1 X64.22 Y81.342 E8.83612
G1 X68.75 Y78.46 E9.10398
G1 X70.885 Y76.969 E9.2339
G1 X75.362 Y73.556 E9.51476
G1 X75.917 Y73.183 E9.54812
G1 X76.513 Y72.878 E9.58153
G1 X77.141 Y72.647 E9.61491
G1 X77.792 Y72.493 E9.64828
G1 X78.748 Y72.409 E9.69616
G1 X98.766 Y72.377 E10.69487
G1 X99.434 Y72.416 E10.72825
G1 X100.092 Y72.534 E10.7616
G1 X100.732 Y72.73 E10.79499
G1 X101.344 Y73.001 E10.82839
G1 X101.919 Y73.343 E10.86176
G1 X102.449 Y73.751 E10.89513
G1 X102.744 Y74.026 E10.91525
G1 X116.844 Y88.191 E11.91238
G1 X117.287 Y88.693 E11.94578
G1 X117.667 Y89.244 E11.97918
G1 X117.978 Y89.836 E12.01254
G1 X118.217 Y90.461 E12.04592
G1 X118.379 Y91.11 E12.07929
G1 X118.463 Y91.773 E12.11264
G1 X118.467 Y92.442 E12.14601
G1 X118.391 Y93.107 E12.17941
G1 X118.237 Y93.758 E12.21278
G1 X118.006 Y94.386 E12.24616
G1 X117.701 Y94.982 E12.27957
G1 X117.328 Y95.537 E12.31293
G1 X116.835 Y96.102 E12.35034
G1 X102.704 Y110.233 E13.34736
G1 X102.203 Y110.677 E13.38075
G1 X101.653 Y111.058 E13.41413
G1 X101.062 Y111.371 E13.4475
G1 X100.438 Y111.611 E13.48085
G1 X99.789 Y111.775 E13.51425
G1 X99.125 Y111.86 E13.54765
G1 X98.456 Y111.866 E13.58103
G1 X97.791 Y111.791 E13.61441
G1 X96.858 Y111.546 E13.66254
G1 X94.669 Y110.763 E13.77853
G1 X89.533 Y109.154 E14.04704
G1 X84.283 Y107.83 E14.31717
G1 X81.802 Y107.317 E14.44356
G1 X76.465 Y106.445 E14.71336
G1 X71.157 Y105.883 E14.97965
G1 X65.801 Y105.62 E15.24719
G1 X59.979 Y105.589 E15.53765
G1 X59.311 Y105.545 E15.57105
G1 X58.654 Y105.422 E15.6044
G1 X58.015 Y105.222 E15.6378
G1 X57.405 Y104.947 E15.67119
G1 X56.833 Y104.601 E15.70454
G1 X56.305 Y104.189 E15.73795
G1 X55.831 Y103.718 E15.77129
G1 X55.416 Y103.193 E15.80468
G1 X55.067 Y102.622 E15.83806
G1 X54.788 Y102.014 E15.87144
G1 X54.584 Y101.377 E15.90481
G1 X54.457 Y100.72 E15.93819
G1 X54.409 Y99.988 E15.97479
G1 X54.41 Y90.005 E16.47284
G1 X54.45 Y89.338 E16.50618
G1 X54.569 Y88.679 E16.53959
G1 X54.766 Y88.04 E16.57295
G1 X55.038 Y87.429 E16.60632
G1 X55.381 Y86.854 E16.63972
G1 X55.79 Y86.325 E16.67308
G1 X56.259 Y85.848 E16.70645
G1 X56.782 Y85.43 E16.73986
G1 X57.472 Y85.014 E16.78005
G0 F3600 X57.653 Y85.371
G1 F1800 X59.691 Y84.335 E16.89411
G1 X64.429 Y81.683 E17.165
G1 X68.971 Y78.793 E17.43358
G1 X71.113 Y77.298 E17.5639
G1 X75.604 Y73.874 E17.84565
G1 X76.14 Y73.516 E17.87781
G1 X76.716 Y73.226 E17.90998
G1 X77.324 Y73.01 E17.94217
G1 X77.953 Y72.872 E17.9743
G1 X78.749 Y72.809 E18.01414
G1 X98.767 Y72.777 E19.01284
G1 X99.41 Y72.816 E19.04498
G1 X100.044 Y72.934 E19.07715
G1 X100.658 Y73.13 E19.10931
G1 X101.243 Y73.4 E19.14145
G1 X101.791 Y73.741 E19.17365
G1 X102.46 Y74.309 E19.21744
G1 X116.56 Y88.474 E20.21456
G1 X116.986 Y88.958 E20.24673
G1 X117.348 Y89.491 E20.27888
G1 X117.642 Y90.065 E20.31105
G1 X117.862 Y90.671 E20.34322
G1 X118.006 Y91.299 E20.37536
G1 X118.071 Y91.94 E20.4075
G1 X118.056 Y92.585 E20.43969
G1 X117.961 Y93.223 E20.47187
G1 X117.789 Y93.844 E20.50402
G1 X117.54 Y94.439 E20.5362
G1 X117.22 Y94.998 E20.56833
G1 X116.834 Y95.514 E20.60048
G1 X116.552 Y95.819 E20.62121
G1 X102.421 Y109.95 E21.61823
G1 X101.938 Y110.377 E21.65039
G1 X101.405 Y110.74 E21.68256
G1 X100.832 Y111.035 E21.71472
G1 X100.227 Y111.257 E21.74687
G1 X99.599 Y111.402 E21.77902
G1 X98.958 Y111.469 E21.81118
G1 X98.313 Y111.455 E21.84336
G1 X97.675 Y111.362 E21.87553
G1 X96.992 Y111.169 E21.91094
G1 X94.789 Y110.381 E22.02767
G1 X89.645 Y108.77 E22.29659
G1 X84.397 Y107.446 E22.56662
G1 X81.846 Y106.919 E22.69658
G1 X76.52 Y106.048 E22.96582
G1 X71.201 Y105.485 E23.23267
G1 X65.799 Y105.22 E23.5025
G1 X59.981 Y105.189 E23.79277
G1 X59.338 Y105.145 E23.82492
G1 X58.705 Y105.023 E23.85708
G1 X58.092 Y104.823 E23.88925
G1 X57.509 Y104.548 E23.92141
G1 X56.964 Y104.204 E23.95357
G1 X56.466 Y103.795 E23.98572
G1 X56.022 Y103.327 E24.0179
G1 X55.639 Y102.808 E24.05008
G1 X55.324 Y102.246 E24.08222
G1 X55.081 Y101.649 E24.11438
G1 X54.913 Y101.026 E24.14657
G1 X54.824 Y100.388 E24.17871
G1 X54.809 Y99.988 E24.19868
G1 X54.81 Y90.005 E24.69673
G1 X54.85 Y89.362 E24.72888
G1 X54.969 Y88.729 E24.76101
G1 X55.166 Y88.115 E24.79318
G1 X55.437 Y87.53 E24.82535
G1 X55.779 Y86.983 E24.85753
G1 X56.186 Y86.483 E24.8897
G1 X56.651 Y86.037 E24.92184
G1 X57.168 Y85.651 E24.95403
G1 X57.653 Y85.371 E24.98197
G1 F1500 E22.98197
G0 F3600 X78.081 Y85.371
G0 X79.366 Y85.371
G0 X79.416 Y78.67
G0 X79.346 Y78.6
;TYPE:WALL-INNER
G1 F1500 E24.98197
G1 F1800 X96.922 Y78.6 E25.85884
G1 X96.924 Y78.6 E25.85894
G1 X97.404 Y78.6 E25.88289
G1 X97.064 Y78.94 E25.89579
G1 X84.002 Y92.001 E26.81735
G1 X83.861 Y92.142 E26.8273
G1 X84.002 Y92.283 E26.83372
G1 X88.78 Y97.06 E27.1708
G1 X89.12 Y97.4 E27.19479
G1 X88.64 Y97.4 E27.20768
G1 X88.638 Y97.4 E27.20778
G1 X79.346 Y97.4 E27.67136
G1 X79.346 Y78.6 E28.60929
G0 F3600 X78.946 Y78.2
;TYPE:WALL-OUTER
G1 F1800 X97.888 Y78.2 E29.55431
G1 X97.89 Y78.2 E29.55441
G1 X98.37 Y78.2 E29.57836
G1 X98.03 Y78.54 E29.59126
G1 X84.568 Y92.001 E30.54105
G1 X84.427 Y92.142 E30.55099
G1 X84.568 Y92.283 E30.55742
G1 X89.746 Y97.46 E30.92272
G1 X90.086 Y97.8 E30.94671
G1 X89.606 Y97.8 E30.95959
G1 X89.604 Y97.8 E30.95969
G1 X78.946 Y97.8 E31.49142
G1 X78.946 Y78.2 E32.46927
G0 F3600 X79.146 Y78.2
G0 X79.416 Y78.67
G0 X79.525 Y78.959
;TYPE:SKIN
G1 F1800 X88.156 Y87.59 E33.07823
G1 X88.226 Y87.66
G0 F3600 X88.439 Y87.307
G1 F1800 X79.911 Y78.78 E33.67989
G1 X79.841 Y78.71
G0 F3600 X80.477 Y78.78
G1 F1800 X88.722 Y87.025 E34.26162
G1 X88.792 Y87.095
G0 F3600 X89.004 Y86.742
G1 F1800 X81.042 Y78.78 E34.82339
G1 X80.972 Y78.71
G0 F3600 X81.608 Y78.78
G1 F1800 X89.287 Y86.459 E35.36518
G1 X89.357 Y86.529
G0 F3600 X89.57 Y86.176
G1 F1800 X82.174 Y78.78 E35.88701
G1 X82.104 Y78.71
G0 F3600 X82.739 Y78.78
G1 F1800 X89.853 Y85.893 E36.3889
G1 X89.923 Y85.963
G0 F3600 X90.136 Y85.61
G1 F1800 X83.305 Y78.78 E36.87083
G1 X83.235 Y78.71
G0 F3600 X83.871 Y78.78
G1 F1800 X90.419 Y85.328 E37.33283
G1 X90.489 Y85.398
G0 F3600 X90.702 Y85.045
G1 F1800 X84.437 Y78.78 E37.77486
G1 X84.367 Y78.71
G0 F3600 X85.002 Y78.78
G1 F1800 X90.985 Y84.763 E38.19699
G1 X91.055 Y84.833
G0 F3600 X91.268 Y84.48
G1 F1800 X85.568 Y78.78 E38.59916
G1 X85.498 Y78.71
G0 F3600 X86.134 Y78.78
G1 F1800 X91.551 Y84.197 E38.98136
G1 X91.621 Y84.267
G0 F3600 X91.834 Y83.914
G1 F1800 X86.699 Y78.78 E39.34362
G1 X86.629 Y78.71
G0 F3600 X87.265 Y78.78
G1 F1800 X92.116 Y83.631 E39.68589
G1 X92.186 Y83.701
G0 F3600 X92.399 Y83.348
G1 F1800 X87.831 Y78.78 E40.00818
G1 X87.761 Y78.71
G0 F3600 X88.396 Y78.78
G1 F1800 X92.682 Y83.065 E40.31055
G1 X92.752 Y83.135
G0 F3600 X92.965 Y82.783
G1 F1800 X88.962 Y78.78 E40.59298
G1 X88.892 Y78.71
G0 F3600 X89.528 Y78.78
G1 F1800 X93.248 Y82.5 E40.85545
G1 X93.318 Y82.57
G0 F3600 X93.531 Y82.217
G1 F1800 X90.093 Y78.78 E41.09798
G1 X90.023 Y78.71
G0 F3600 X90.659 Y78.78
G1 F1800 X93.813 Y81.934 E41.32052
G1 X93.883 Y82.004
G0 F3600 X94.096 Y81.651
G1 F1800 X91.225 Y78.78 E41.52308
G1 X91.155 Y78.71
G0 F3600 X91.79 Y78.78
G1 F1800 X94.379 Y81.368 E41.70571
G1 X94.449 Y81.438
G0 F3600 X94.662 Y81.086
G1 F1800 X92.356 Y78.78 E41.86841
G1 X92.286 Y78.71
G0 F3600 X92.922 Y78.78
G1 F1800 X94.945 Y80.803 E42.01115
G1 X95.015 Y80.873
G0 F3600 X95.228 Y80.52
G1 F1800 X93.488 Y78.78 E42.13391
G1 X93.418 Y78.71
G0 F3600 X94.053 Y78.78
G1 F1800 X95.511 Y80.237 E42.23675
G1 X95.581 Y80.307
G0 F3600 X95.793 Y79.954
G1 F1800 X94.619 Y78.78 E42.31958
G1 X94.549 Y78.71
G0 F3600 X95.185 Y78.78
G1 F1800 X96.076 Y79.671 E42.38244
G1 X96.146 Y79.741
G0 F3600 X96.359 Y79.388
G1 F1800 X95.75 Y78.78 E42.42538
G1 X95.68 Y78.71
G0 F3600 X96.316 Y78.78
G1 F1800 X96.642 Y79.106 E42.44838
G0 F3600 X87.873 Y87.873
G1 F1800 X79.525 Y79.525 E43.03738
G1 X79.455 Y79.455
G0 F3600 X79.525 Y80.091
G1 F1800 X87.59 Y88.156 E43.6064
G1 X87.66 Y88.226
G0 F3600 X87.307 Y88.439
G1 F1800 X79.525 Y80.656 E44.1555
G1 X79.455 Y80.586
G0 F3600 X79.525 Y81.222
G1 F1800 X87.025 Y88.722 E44.68467
G1 X87.095 Y88.792
G0 F3600 X86.742 Y89.004
G1 F1800 X79.525 Y81.788 E45.19383
G1 X79.455 Y81.718
G0 F3600 X79.525 Y82.353
G1 F1800 X86.459 Y89.287 E45.68306
G1 X86.529 Y89.357
G0 F3600 X86.176 Y89.57
G1 F1800 X79.525 Y82.919 E46.15233
G1 X79.455 Y82.849
G0 F3600 X79.525 Y83.485
G1 F1800 X85.893 Y89.853 E46.60162
G1 X85.963 Y89.923
G0 F3600 X85.61 Y90.136
G1 F1800 X79.525 Y84.05 E47.03099
G1 X79.455 Y83.98
G0 F3600 X79.525 Y84.616
G1 F1800 X85.327 Y90.419 E47.44038
G1 X85.397 Y90.489
G0 F3600 X85.045 Y90.702
G1 F1800 X79.525 Y85.182 E47.82985
G1 X79.455 Y85.112
G0 F3600 X79.525 Y85.748
G1 F1800 X84.762 Y90.984 E48.19931
G1 X84.832 Y91.054
G0 F3600 X84.479 Y91.267
G1 F1800 X79.525 Y86.313 E48.54885
G1 X79.455 Y86.243
G0 F3600 X79.525 Y86.879
G1 F1800 X84.196 Y91.55 E48.87841
G1 X84.266 Y91.62
G0 F3600 X83.913 Y91.833
G1 F1800 X79.525 Y87.445 E49.18801
G1 X79.455 Y87.375
G0 F3600 X79.525 Y88.01
G1 F1800 X83.63 Y92.116 E49.47767
G1 X83.7 Y92.186
G0 F3600 X79.525 Y91.97
G1 F1800 X84.774 Y97.219 E49.84802
G1 X84.844 Y97.289
G0 F3600 X85.34 Y97.219
G1 F1800 X79.525 Y91.404 E50.2583
G1 X79.455 Y91.334
G0 F3600 X79.525 Y90.839
G1 F1800 X85.905 Y97.219 E50.70844
G1 X85.975 Y97.289
G0 F3600 X86.471 Y97.219
G1 F1800 X79.525 Y90.273 E51.19852
G1 X79.455 Y90.203
G0 F3600 X79.525 Y89.707
G1 F1800 X87.037 Y97.219 E51.72853
G1 X87.107 Y97.289
G0 F3600 X87.602 Y97.219
G1 F1800 X79.525 Y89.142 E52.29841
G1 X79.455 Y89.072
G0 F3600 X79.525 Y88.576
M104 S265
G1 F1800 X88.168 Y97.219 E52.90822
G1 X88.238 Y97.289
G0 F3600 X84.208 Y97.219
G1 F1800 X79.525 Y92.536 E53.23863
G1 X79.455 Y92.466
G0 F3600 X79.525 Y93.101
G1 F1800 X83.642 Y97.219 E53.52914
G1 X83.712 Y97.289
G0 F3600 X83.077 Y97.219
G1 F1800 X79.525 Y93.667 E53.77975
G1 X79.455 Y93.597
G0 F3600 X79.525 Y94.233
G1 F1800 X82.511 Y97.219 E53.99043
G1 X82.581 Y97.289
G0 F3600 X81.945 Y97.219
G1 F1800 X79.525 Y94.798 E54.16121
G1 X79.455 Y94.728
G0 F3600 X79.525 Y95.364
G1 F1800 X81.38 Y97.219 E54.29209
G1 X81.45 Y97.289
G0 F3600 X80.814 Y97.219
G1 F1800 X79.525 Y95.93 E54.38304
G1 X79.455 Y95.86
G0 F3600 X79.525 Y96.496
G1 F1800 X80.248 Y97.219 E54.43405
G1 X80.318 Y97.289
G0 F3600 X79.683 Y97.219
G1 F1800 X79.525 Y97.061 E54.4452
G0 F3600 X89.028 Y97.362
G0 X89.28 Y97.482
;TYPE:SKIN
G1 F1800 X89.401 Y97.604 E54.44948
G0 F3600 X89.028 Y97.362
G0 X83.821 Y92.142
G0 X97.312 Y78.638
G0 X97.763 Y78.529
G1 F1800 X97.628 Y78.394 E54.45424
G92 E0

T1
G92 E0

M109 S260
M104 T0 S260
G0 F3600 X97.628 Y78.394 Z0.3
G1 F1500 E-0.8
G0 F3600 X97.628 Y88.394
G0 X103.854 Y82.167
G0 X103.878 Y72.898
;TYPE:SKIRT
G1 F1500 E0
G1 F1800 X117.978 Y87.063 E0.99713
G1 X118.484 Y87.628 E1.03497
G1 X118.928 Y88.243 E1.07281
G1 X119.305 Y88.902 E1.11069
G1 X119.61 Y89.596 E1.14851
G1 X119.84 Y90.319 E1.18636
G1 X119.994 Y91.062 E1.22422
G1 X120.068 Y91.817 E1.26206
G1 X120.062 Y92.576 E1.29993
G1 X119.976 Y93.33 E1.33779
G1 X119.812 Y94.07 E1.37561
G1 X119.571 Y94.789 E1.41344
G1 X119.255 Y95.479 E1.4513
G1 X118.868 Y96.132 E1.48917
G1 X118.415 Y96.741 E1.52704
G1 X117.966 Y97.233 E1.56027
G1 X103.835 Y111.364 E2.55729
G1 X103.271 Y111.872 E2.59516
G1 X102.657 Y112.317 E2.63299
G1 X101.999 Y112.695 E2.67085
G1 X101.305 Y113.002 E2.70871
G1 X100.583 Y113.234 E2.74654
G1 X99.84 Y113.389 E2.78441
G1 X99.085 Y113.465 E2.82227
G1 X98.327 Y113.461 E2.86008
G1 X97.573 Y113.377 E2.89793
G1 X96.832 Y113.214 E2.93579
G1 X96.319 Y113.052 E2.96263
G1 X94.173 Y112.284 E3.07634
G1 X89.088 Y110.691 E3.34219
G1 X83.94 Y109.393 E3.60706
G1 X81.506 Y108.89 E3.73106
G1 X76.252 Y108.031 E3.99666
G1 X71.033 Y107.479 E4.25849
G1 X65.759 Y107.22 E4.52193
G1 X59.97 Y107.189 E4.81075
G1 X59.213 Y107.145 E4.84858
G1 X58.464 Y107.021 E4.88646
G1 X57.733 Y106.82 E4.92428
G1 X57.027 Y106.542 E4.96213
G1 X56.354 Y106.192 E4.99998
G1 X55.721 Y105.773 E5.03785
G1 X55.136 Y105.29 E5.0757
G1 X54.606 Y104.748 E5.11352
G1 X54.135 Y104.153 E5.15138
G1 X53.729 Y103.511 E5.18928
G1 X53.394 Y102.831 E5.2271
G1 X53.131 Y102.119 E5.26496
G1 X52.945 Y101.384 E5.30279
G1 X52.838 Y100.633 E5.34063
G1 X52.809 Y99.988 E5.37285
G1 X52.81 Y90.005 E5.8709
G1 X52.85 Y89.248 E5.90872
G1 X52.97 Y88.498 E5.94661
G1 X53.167 Y87.766 E5.98443
G1 X53.441 Y87.058 E6.02231
G1 X53.788 Y86.384 E6.06013
G1 X54.203 Y85.749 E6.09797
G1 X54.684 Y85.162 E6.13584
G1 X55.223 Y84.628 E6.17369
G1 X55.815 Y84.154 E6.21152
G1 X56.747 Y83.588 E6.26592
G1 X58.762 Y82.563 E6.37871
G1 X63.404 Y79.965 E6.64411
G1 X67.857 Y77.132 E6.90742
G1 X69.913 Y75.697 E7.0325
G1 X74.391 Y72.283 E7.31344
G1 X75.018 Y71.856 E7.35128
G1 X75.686 Y71.497 E7.38912
G1 X76.389 Y71.21 E7.427
G1 X77.117 Y70.998 E7.46483
G1 X77.864 Y70.865 E7.50268
G1 X78.745 Y70.809 E7.54672
G1 X98.763 Y70.777 E8.54543
G1 X99.521 Y70.816 E8.58329
G1 X100.271 Y70.934 E8.62117
G1 X101.003 Y71.131 E8.65899
G1 X101.711 Y71.403 E8.69683
G1 X102.387 Y71.749 E8.73472
G1 X103.022 Y72.163 E8.77254
G1 X103.878 Y72.898 E8.82882
